0: T120 @0 L240 $ o5a&a&a&a&a&a&a&a&a&a&a&a&a&a&a&a&a&a&a&a&a&a&a&ag&g&g&g&g&g&g&g&g&g&g&g&g&g&g&g&g&g&g&g&g&g&g&gf#&f#&f#&f#&f#&f#&f#&f#&f#&f#&f#&f#&f#&f#&f#&f#&f#&f#&f#&f#&f#&f#&f#&f#e&e&e&e&e&e&e&e&e&e&e&e&e&e&e&e&e&e&e&e&e&e&e&e&e&e&e&e&e&e&e&e&e&e&e&e&e&e&e&e&e&e&e&e&e&e&e&ed&d&d&d&d&d&d&d&d&d&d&d&d&d&d&d&d&d&d&d&d&d&d&d&d&d&d&d&d&d&d&d&d&d&d&d&d&d&d&d&d&d&d&d&d&d&d&d&d&d&d&d&d&d&d&d&d&d&d&d&d&d&d&d&d&d&d&d&d&d&d&de&e&e&e&e&e&e&e&e&e&e&e&e&e&e&e&e&e&e&e&e&e&e&e&e&e&e&e&e&e&e&e&e&e&e&e&e&e&e&e&e&e&e&e&e&e&e&e&e&e&e&e&e&e&e&e&e&e&e&e&e&e&e&e&e&e&e&e&e&e&e&e&e&e&e&e&e&e&e&e&e&e&e&e&e&e&e&e&e&e&e&e&e&e&e&e&e&e&e&e&e&e&e&e&e&e&e&e&e&e&e&e&e&e&e&e&e&e&e&e&e&e&e&e&e&e&e&e&e&e&e&e&e&e&e&e&e&e&e&e&e&e&e&e&e&e&e&e&e&e&e&e&e&e&e&e&e&e&e&e&e&e&e&e&e&e&e&e&e&e&e&e&e&e&e&e&e&e&e&e&e&e&e&e&e&e&e&e&e&e&e&ef#&f#&f#&f#&f#&f#&f#&f#&f#&f#&f#&f#&f#&f#&f#&f#&f#&f#&f#&f#&f#&f#&f#&f#d&d&d&d&d&d&d&d&d&d&d&d&d&d&d&d&d&d&d&d&d&d&d&d&d&d&d&d&d&d&d&d&d&d&d&d&d&d&d&d&d&d&d&d&d&d&d&d&d&d&d&d&d&d&d&d&d&d&d&d&d&d&d&d&d&d&d&d&d&d&d&d&d&d&d&d&d&d&d&d&d&d&d&d&d&d&d&d&d&d&d&d&d&d&d&d&d&d&d&d&d&d&d&d&d&d&d&d&d&d&d&d&d&d&d&d&d&d&d&d&d&d&d&d&d&d&d&d&d&d&d&d&d&d&d&d&d&d&d&d&d&d&d&d&d&d&d&d&d&d&d&d&d&d&d&d&d&d&d&d&d&d&d&d&d&d&d&dg&g&g&g&g&g&g&g&g&g&g&g&g&g&g&g&g&g&g&g&g&g&g&go4g&g&g&g&g&g&g&g&g&g&g&g&g&g&g&g&g&g&g&g&g&g&g&go5e&e&e&e&e&e&e&e&e&e&e&e&e&e&e&e&e&e&e&e&e&e&e&e&e&e&e&e&e&e&e&e&e&e&e&e&e&e&e&e&e&e&e&e&e&e&e&e&e&e&e&e&e&e&e&e&e&e&e&e&e&e&e&e&e&e&e&e&e&e&e&e&e&e&e&e&e&e&e&e&e&e&e&e&e&e&e&e&e&e&e&e&e&e&e&e&e&e&e&e&e&e&e&e&e&e&e&e&e&e&e&e&e&e&e&e&e&e&e&e&e&e&e&e&e&e&e&e&e&e&e&e&e&e&e&e&e&e&e&e&e&e&e&ea&a&a&a&a&a&a&a&a&a&a&a&a&a&a&a&a&a&a&a&a&a&a&ag&g&g&g&g&g&g&g&g&g&g&g&g&g&g&g&g&g&g&g&g&g&g&gf#&f#&f#&f#&f#&f#&f#&f#&f#&f#&f#&f#&f#&f#&f#&f#&f#&f#&f#&f#&f#&f#&f#&f#e&e&e&e&e&e&e&e&e&e&e&e&e&e&e&e&e&e&e&e&e&e&e&e&e&e&e&e&e&e&e&e&e&e&e&e&e&e&e&e&e&e&e&e&e&e&e&ed&d&d&d&d&d&d&d&d&d&d&d&d&d&d&d&d&d&d&d&d&d&d&d&d&d&d&d&d&d&d&d&d&d&d&d&d&d&d&d&d&d&d&d&d&d&d&d&d&d&d&d&d&d&d&d&d&d&d&d&d&d&d&d&d&d&d&d&d&d&d&de&e&e&e&e&e&e&e&e&e&e&e&e&e&e&e&e&e&e&e&e&e&e&e&e&e&e&e&e&e&e&e&e&e&e&e&e&e&e&e&e&e&e&e&e&e&e&e&e&e&e&e&e&e&e&e&e&e&e&e&e&e&e&e&e&e&e&e&e&e&e&e&e&e&e&e&e&e&e&e&e&e&e&e&e&e&e&e&e&e&e&e&e&e&e&e&e&e&e&e&e&e&e&e&e&e&e&e&e&e&e&e&e&e&e&e&e&e&e&e&e&e&e&e&e&e&e&e&e&e&e&e&e&e&e&e&e&e&e&e&e&e&e&e&e&e&e&e&e&e&e&e&e&e&e&e&e&e&e&e&e&e&e&e&e&e&e&e&e&e&e&e&e&e&e&e&e&e&e&e&e&e&e&e&e&e&e&e&e&e&e&ef#&f#&f#&f#&f#&f#&f#&f#&f#&f#&f#&f#&f#&f#&f#&f#&f#&f#&f#&f#&f#&f#&f#&f#&f#&f#&f#&f#&f#&f#&f#&f#&f#&f#&f#&f#&f#&f#&f#&f#&f#&f#&f#&f#&f#&f#&f#&f#&f#&f#&f#&f#&f#&f#&f#&f#&f#&f#&f#&f#&f#&f#&f#&f#&f#&f#&f#&f#&f#&f#&f#&f#e&e&e&e&e&e&e&e&e&e&e&e&e&e&e&e&e&e&e&e&e&e&e&e&e&e&e&e&e&e&e&e&e&e&e&e&e&e&e&e&e&e&e&e&e&e&e&ef#&f#&f#&f#&f#&f#&f#&f#&f#&f#&f#&f#o4a&a&a&a&a&a&a&a&a&a&a&ao5a&a&a&a&a&a&a&a&a&a&a&a&a&a&a&a&a&a&a&a&a&a&a&a&a&a&a&a&a&a&a&a&a&a&a&a&a&a&a&a&a&a&a&a&a&a&a&ae&e&e&e&e&e&e&e&e&e&e&e&e&e&e&e&e&e&e&e&e&e&e&e&e&e&e&e&e&e&e&e&e&e&e&e&e&e&e&e&e&e&e&e&e&e&e&e&e&e&e&e&e&e&e&e&e&e&e&e&e&e&e&e&e&e&e&e&e&e&e&e&e&e&e&e&e&e&e&e&e&e&e&e&e&e&e&e&e&e&e&e&e&e&e&e&e&e&e&e&e&e&e&e&e&e&e&e&e&e&e&e&e&e&e&e&e&e&e&e&e&e&e&e&e&e&e&e&e&e&e&e&e&e&e&e&e&e&e&e&e&e&e&e&e&e&e&e&e&e&e&e&e&e&e&e&e&e&e&e&e&e&e&e&e&e&e&e&e&e&e&e&e&e&e&e&e&e&e&e&e&e&e&e&e&e&e&er&r&r&r
1: T120 @2 L240 $ d&d&d&d&d&d&d&d&d&d&d&d&d&d&d&d&d&d&dr&r&r&r&rd&d&d&d&d&d&d&d&dr&r&rd&d&d&d&d&d&d&d&dr&r&rd&d&d&d&d&d&d&d&d&d&d&d&d&d&d&d&d&d&dr&r&r&r&rd&d&d&d&d&d&d&d&dr&r&rd&d&d&d&d&d&d&d&dr&r&rd&d&d&d&d&d&d&d&d&d&d&d&d&d&d&d&d&d&dr&r&r&r&rd&d&d&d&d&d&d&d&dr&r&rd&d&d&d&d&d&d&d&dr&r&rd&d&d&d&d&d&d&d&d&d&d&d&d&d&d&d&d&d&dr&r&r&r&rd&d&d&d&d&d&d&d&dr&r&rd&d&d&d&d&d&d&d&dr&r&rc&c&c&c&c&c&c&c&c&c&c&c&c&c&c&c&c&c&cr&r&r&r&rc&c&c&c&c&c&c&c&cr&r&rc&c&c&c&c&c&c&c&cr&r&rc&c&c&c&c&c&c&c&c&c&c&c&c&c&c&c&c&c&cr&r&r&r&rc&c&c&c&c&c&c&c&cr&r&rc&c&c&c&c&c&c&c&cr&r&rc&c&c&c&c&c&c&c&c&c&c&c&c&c&c&c&c&c&cr&r&r&r&rc&c&c&c&c&c&c&c&cr&r&rc&c&c&c&c&c&c&c&cr&r&rc&c&c&c&c&c&c&c&c&c&c&c&c&c&c&c&c&c&cr&r&r&r&rc&c&c&c&c&c&c&c&cr&r&rc&c&c&c&c&c&c&c&cr&r&rd&d&d&d&d&d&d&d&d&d&d&d&d&d&d&d&d&d&dr&r&r&r&rd&d&d&d&d&d&d&d&dr&r&rd&d&d&d&d&d&d&d&dr&r&rd&d&d&d&d&d&d&d&d&d&d&d&d&d&d&d&d&d&dr&r&r&r&rd&d&d&d&d&d&d&d&dr&r&rd&d&d&d&d&d&d&d&dr&r&rd&d&d&d&d&d&d&d&d&d&d&d&d&d&d&d&d&d&dr&r&r&r&rd&d&d&d&d&d&d&d&dr&r&rd&d&d&d&d&d&d&d&dr&r&rd&d&d&d&d&d&d&d&d&d&d&d&d&d&d&d&d&d&dr&r&r&r&rd&d&d&d&d&d&d&d&dr&r&rd&d&d&d&d&d&d&d&dr&r&rc&c&c&c&c&c&c&c&c&c&c&c&c&c&c&c&c&c&cr&r&r&r&rc&c&c&c&c&c&c&c&cr&r&rc&c&c&c&c&c&c&c&cr&r&rc&c&c&c&c&c&c&c&c&c&c&c&c&c&c&c&c&c&cr&r&r&r&rc&c&c&c&c&c&c&c&cr&r&rc&c&c&c&c&c&c&c&cr&r&rc&c&c&c&c&c&c&c&c&c&c&c&c&c&c&c&c&c&cr&r&r&r&rc&c&c&c&c&c&c&c&cr&r&rc&c&c&c&c&c&c&c&cr&r&rc&c&c&c&c&c&c&c&c&c&c&c&c&c&c&c&c&c&cr&r&r&r&rc&c&c&c&c&c&c&c&cr&r&rc&c&c&c&c&c&c&c&cr&r&rd&d&d&d&d&d&d&d&d&d&d&d&d&d&d&d&d&d&dr&r&r&r&rd&d&d&d&d&d&d&d&dr&r&rd&d&d&d&d&d&d&d&dr&r&rd&d&d&d&d&d&d&d&d&d&d&d&d&d&d&d&d&d&dr&r&r&r&rd&d&d&d&d&d&d&d&dr&r&rd&d&d&d&d&d&d&d&dr&r&rd&d&d&d&d&d&d&d&d&d&d&d&d&d&d&d&d&d&dr&r&r&r&rd&d&d&d&d&d&d&d&dr&r&rd&d&d&d&d&d&d&d&dr&r&rd&d&d&d&d&d&d&d&d&d&d&d&d&d&d&d&d&d&dr&r&r&r&rd&d&d&d&d&d&d&d&dr&r&rd&d&d&d&d&d&d&d&dr&r&rc&c&c&c&c&c&c&c&c&c&c&c&c&c&c&c&c&c&cr&r&r&r&rc&c&c&c&c&c&c&c&cr&r&rc&c&c&c&c&c&c&c&cr&r&rc&c&c&c&c&c&c&c&c&c&c&c&c&c&c&c&c&c&cr&r&r&r&rc&c&c&c&c&c&c&c&cr&r&rc&c&c&c&c&c&c&c&cr&r&rc&c&c&c&c&c&c&c&c&c&c&c&c&c&c&c&c&c&cr&r&r&r&rc&c&c&c&c&c&c&c&cr&r&rc&c&c&c&c&c&c&c&cr&r&rc&c&c&c&c&c&c&c&c&c&c&c&c&c&c&c&c&c&cr&r&r&r&rc&c&c&c&c&c&c&c&cr&r&rc&c&c&c&c&c&c&c&cr&r&rd&d&d&d&d&d&d&d&d&d&d&d&d&d&d&d&d&d&dr&r&r&r&rd&d&d&d&d&d&d&d&dr&r&rd&d&d&d&d&d&d&d&dr&r&rd&d&d&d&d&d&d&d&d&d&d&d&d&d&d&d&d&d&dr&r&r&r&rd&d&d&d&d&d&d&d&dr&r&rd&d&d&d&d&d&d&d&dr&r&rd&d&d&d&d&d&d&d&d&d&d&d&d&d&d&d&d&d&dr&r&r&r&rd&d&d&d&d&d&d&d&dr&r&rd&d&d&d&d&d&d&d&dr&r&rd&d&d&d&d&d&d&d&d&d&d&d&d&d&d&d&d&d&dr&r&r&r&rd&d&d&d&d&d&d&d&dr&r&rd&d&d&d&d&d&d&d&dr&r&rc&c&c&c&c&c&c&c&c&c&c&c&c&c&c&c&c&c&cr&r&r&r&rc&c&c&c&c&c&c&c&cr&r&rc&c&c&c&c&c&c&c&cr&r&rc&c&c&c&c&c&c&c&c&c&c&c&c&c&c&c&c&c&cr&r&r&r&rc&c&c&c&c&c&c&c&cr&r&rc&c&c&c&c&c&c&c&cr&r&rc&c&c&c&c&c&c&c&c&c&c&c&c&c&c&c&c&c&cr&r&r&r&rc&c&c&c&c&c&c&c&cr&r&rc&c&c&c&c&c&c&c&cr&r&ro3c&c&c&c&c&c&c&c&c&c&c&c&c&c&c&c&c&c&cr&r&r&r&rc&c&c&c&c&c&c&c&cr&r&rc&c&c&c&c&c&c&c&cr&r&r
2: T120 @3 L240 $ o6a#&a#&a#&a#&a#&a#&a#&a#&a#&a#&a#&a#&a#&a#&a#&a#&a#&a#&a#&a#&a#&a#&a#&a#&a#&a#&a#&a#&a#&a#&a#&a#&a#&a#&a#&a#&a#&a#&a#&a#&a#&a#&a#&a#&a#&a#&a#&a#o5a#&a#&a#&a#&a#&a#&a#&a#&a#&a#&a#&a#&a#&a#&a#&a#&a#&a#&a#&a#&a#&a#&a#&a#o6a#&a#&a#&a#&a#&a#&a#&a#&a#&a#&a#&a#&a#&a#&a#&a#&a#&a#&a#&a#&a#&a#&a#&a#&a#&a#&a#&a#&a#&a#&a#&a#&a#&a#&a#&a#&a#&a#&a#&a#&a#&a#&a#&a#&a#&a#&a#&a#&a#&a#&a#&a#&a#&a#&a#&a#&a#&a#&a#&a#&a#&a#&a#&a#&a#&a#&a#&a#&a#&a#&a#&a#o5a#&a#&a#&a#&a#&a#&a#&a#&a#&a#&a#&a#&a#&a#&a#&a#&a#&a#&a#&a#&a#&a#&a#&a#o6a#&a#&a#&a#&a#&a#&a#&a#&a#&a#&a#&a#&a#&a#&a#&a#&a#&a#&a#&a#&a#&a#&a#&a#&a#&a#&a#&a#&a#&a#&a#&a#&a#&a#&a#&a#&a#&a#&a#&a#&a#&a#&a#&a#&a#&a#&a#&a#&a#&a#&a#&a#&a#&a#&a#&a#&a#&a#&a#&a#&a#&a#&a#&a#&a#&a#&a#&a#&a#&a#&a#&a#o5a#&a#&a#&a#&a#&a#&a#&a#&a#&a#&a#&a#&a#&a#&a#&a#&a#&a#&a#&a#&a#&a#&a#&a#o6a#&a#&a#&a#&a#&a#&a#&a#&a#&a#&a#&a#&a#&a#&a#&a#&a#&a#&a#&a#&a#&a#&a#&a#&a#&a#&a#&a#&a#&a#&a#&a#&a#&a#&a#&a#&a#&a#&a#&a#&a#&a#&a#&a#&a#&a#&a#&a#&a#&a#&a#&a#&a#&a#&a#&a#&a#&a#&a#&a#&a#&a#&a#&a#&a#&a#&a#&a#&a#&a#&a#&a#o5a#&a#&a#&a#&a#&a#&a#&a#&a#&a#&a#&a#&a#&a#&a#&a#&a#&a#&a#&a#&a#&a#&a#&a#o6a#&a#&a#&a#&a#&a#&a#&a#&a#&a#&a#&a#&a#&a#&a#&a#&a#&a#&a#&a#&a#&a#&a#&a#&a#&a#&a#&a#&a#&a#&a#&a#&a#&a#&a#&a#&a#&a#&a#&a#&a#&a#&a#&a#&a#&a#&a#&a#&a#&a#&a#&a#&a#&a#&a#&a#&a#&a#&a#&a#&a#&a#&a#&a#&a#&a#&a#&a#&a#&a#&a#&a#o5a#&a#&a#&a#&a#&a#&a#&a#&a#&a#&a#&a#&a#&a#&a#&a#&a#&a#&a#&a#&a#&a#&a#&a#o6a#&a#&a#&a#&a#&a#&a#&a#&a#&a#&a#&a#&a#&a#&a#&a#&a#&a#&a#&a#&a#&a#&a#&a#&a#&a#&a#&a#&a#&a#&a#&a#&a#&a#&a#&a#&a#&a#&a#&a#&a#&a#&a#&a#&a#&a#&a#&a#&a#&a#&a#&a#&a#&a#&a#&a#&a#&a#&a#&a#&a#&a#&a#&a#&a#&a#&a#&a#&a#&a#&a#&a#o5a#&a#&a#&a#&a#&a#&a#&a#&a#&a#&a#&a#&a#&a#&a#&a#&a#&a#&a#&a#&a#&a#&a#&a#o6a#&a#&a#&a#&a#&a#&a#&a#&a#&a#&a#&a#&a#&a#&a#&a#&a#&a#&a#&a#&a#&a#&a#&a#&a#&a#&a#&a#&a#&a#&a#&a#&a#&a#&a#&a#&a#&a#&a#&a#&a#&a#&a#&a#&a#&a#&a#&a#&a#&a#&a#&a#&a#&a#&a#&a#&a#&a#&a#&a#&a#&a#&a#&a#&a#&a#&a#&a#&a#&a#&a#&a#o5a#&a#&a#&a#&a#&a#&a#&a#&a#&a#&a#&a#&a#&a#&a#&a#&a#&a#&a#&a#&a#&a#&a#&a#o6a#&a#&a#&a#&a#&a#&a#&a#&a#&a#&a#&a#&a#&a#&a#&a#&a#&a#&a#&a#&a#&a#&a#&a#&a#&a#&a#&a#&a#&a#&a#&a#&a#&a#&a#&a#&a#&a#&a#&a#&a#&a#&a#&a#&a#&a#&a#&a#&a#&a#&a#&a#&a#&a#&a#&a#&a#&a#&a#&a#&a#&a#&a#&a#&a#&a#&a#&a#&a#&a#&a#&a#o5a#&a#&a#&a#&a#&a#&a#&a#&a#&a#&a#&a#&a#&a#&a#&a#&a#&a#&a#&a#&a#&a#&a#&a#o6a#&a#&a#&a#&a#&a#&a#&a#&a#&a#&a#&a#o5a#&a#&a#&a#&a#&a#&a#&a#&a#&a#&a#&a#o6a#&a#&a#&a#&a#&a#&a#&a#&a#&a#&a#&a#&a#&a#&a#&a#&a#&a#&a#&a#&a#&a#&a#&a#&a#&a#&a#&a#&a#&a#&a#&a#&a#&a#&a#&a#&a#&a#&a#&a#&a#&a#&a#&a#&a#&a#&a#&a#o5a#&a#&a#&a#&a#&a#&a#&a#&a#&a#&a#&a#&a#&a#&a#&a#&a#&a#&a#&a#&a#&a#&a#&a#o6a#&a#&a#&a#&a#&a#&a#&a#&a#&a#&a#&a#&a#&a#&a#&a#&a#&a#&a#&a#&a#&a#&a#&a#&a#&a#&a#&a#&a#&a#&a#&a#&a#&a#&a#&a#&a#&a#&a#&a#&a#&a#&a#&a#&a#&a#&a#&a#&a#&a#&a#&a#&a#&a#&a#&a#&a#&a#&a#&a#&a#&a#&a#&a#&a#&a#&a#&a#&a#&a#&a#&a#o5a#&a#&a#&a#&a#&a#&a#&a#&a#&a#&a#&a#&a#&a#&a#&a#&a#&a#&a#&a#&a#&a#&a#&a#o6a#&a#&a#&a#&a#&a#&a#&a#&a#&a#&a#&a#&a#&a#&a#&a#&a#&a#&a#&a#&a#&a#&a#&a#&a#&a#&a#&a#&a#&a#&a#&a#&a#&a#&a#&a#&a#&a#&a#&a#&a#&a#&a#&a#&a#&a#&a#&a#&a#&a#&a#&a#&a#&a#&a#&a#&a#&a#&a#&a#&a#&a#&a#&a#&a#&a#&a#&a#&a#&a#&a#&a#o5a#&a#&a#&a#&a#&a#&a#&a#&a#&a#&a#&a#&a#&a#&a#&a#&a#&a#&a#&a#&a#&a#&a#&a#o6a#&a#&a#&a#&a#&a#&a#&a#&a#&a#&a#&a#&a#&a#&a#&a#&a#&a#&a#&a#&a#&a#&a#&a#&a#&a#&a#&a#&a#&a#&a#&a#&a#&a#&a#&a#&a#&a#&a#&a#&a#&a#&a#&a#&a#&a#&a#&a#&a#&a#&a#&a#&a#&a#&a#&a#&a#&a#&a#&a#&a#&a#&a#&a#&a#&a#&a#&a#&a#&a#&a#&a#o5a#&a#&a#&a#&a#&a#&a#&a#&a#&a#&a#&a#&a#&a#&a#&a#&a#&a#&a#&a#&a#&a#&a#&a#o6a#&a#&a#&a#&a#&a#&a#&a#&a#&a#&a#&a#&a#&a#&a#&a#&a#&a#&a#&a#&a#&a#&a#&a#&a#&a#&a#&a#&a#&a#&a#&a#&a#&a#&a#&a#&a#&a#&a#&a#&a#&a#&a#&a#&a#&a#&a#&a#&a#&a#&a#&a#&a#&a#&a#&a#&a#&a#&a#&a#&a#&a#&a#&a#&a#&a#&a#&a#&a#&a#&a#&a#o5a#&a#&a#&a#&a#&a#&a#&a#&a#&a#&a#&a#&a#&a#&a#&a#&a#&a#&a#&a#&a#&a#&a#&a#o6a#&a#&a#&a#&a#&a#&a#&a#&a#&a#&a#&a#&a#&a#&a#&a#&a#&a#&a#&a#&a#&a#&a#&a#&a#&a#&a#&a#&a#&a#&a#&a#&a#&a#&a#&a#&a#&a#&a#&a#&a#&a#&a#&a#&a#&a#&a#&a#&a#&a#&a#&a#&a#&a#&a#&a#&a#&a#&a#&a#&a#&a#&a#&a#&a#&a#&a#&a#&a#&a#&a#&a#o5a#&a#&a#&a#&a#&a#&a#&a#&a#&a#&a#&a#&a#&a#&a#&a#&a#&a#&a#&a#&a#&a#&a#&a#o6a#&a#&a#&a#&a#&a#&a#&a#&a#&a#&a#&a#&a#&a#&a#&a#&a#&a#&a#&a#&a#&a#&a#&a#&a#&a#&a#&a#&a#&a#&a#&a#&a#&a#&a#&a#&a#&a#&a#&a#&a#&a#&a#&a#&a#&a#&a#&a#&a#&a#&a#&a#&a#&a#&a#&a#&a#&a#&a#&a#&a#&a#&a#&a#&a#&a#&a#&a#&a#&a#&a#&a#o5a#&a#&a#&a#&a#&a#&a#&a#&a#&a#&a#&a#&a#&a#&a#&a#&a#&a#&a#&a#&a#&a#&a#&a#o6a#&a#&a#&a#&a#&a#&a#&a#&a#&a#&a#&a#&a#&a#&a#&a#&a#&a#&a#&a#&a#&a#&a#&a#&a#&a#&a#&a#&a#&a#&a#&a#&a#&a#&a#&a#&a#&a#&a#&a#&a#&a#&a#&a#&a#&a#&a#&a#&a#&a#&a#&a#&a#&a#&a#&a#&a#&a#&a#&a#&a#&a#&a#&a#&a#&a#&a#&a#&a#&a#&a#&a#o5a#&a#&a#&a#&a#&a#&a#&a#&a#&a#&a#&a#&a#&a#&a#&a#&a#&a#&a#&a#&a#&a#&a#&a#o6a#&a#&a#&a#&a#&a#&a#&a#&a#&a#&a#&a#o5a#&a#&a#&a#&a#&a#&a#&a#&a#&a#&a#&a#
3: T120 @2 L240 $ r&r&r&r&r&r&r&r&r&r&r&r&r&r&r&r&r&r&r&r&r&r&r&r&r&r&r&r&r&r&r&r&r&r&r&r&r&r&r&r&r&r&r&r&r&r&r&r&r&r&r&r&r&r&r&r&r&r&r&r&r&r&r&r&r&r&r&r&r&r&r&r&r&r&r&r&r&r&r&r&r&r&r&r&r&r&r&r&r&r&r&r&r&r&r&r&r&r&r&r&r&r&r&r&r&r&r&r&r&r&r&r&r&r&r&r&r&r&r&r&r&r&r&r&r&r&r&r&r&r&r&r&r&r&r&r&r&r&r&r&r&r&r&r&r&r&r&r&r&r&r&r&r&r&r&r&r&r&r&r&r&r&r&r&r&r&r&r&r&r&r&r&r&r&r&r&r&r&r&r&r&r&r&r&r&r&r&r&r&r&r&r&r&r&r&r&r&r&r&r&r&r&r&r&r&r&r&r&r&r&r&r&r&r&r&r&r&r&r&r&r&r&r&r&r&r&r&r&r&r&r&r&r&r&r&r&r&r&r&r&r&r&r&r&r&r&r&r&r&r&r&r&r&r&r&r&r&r&r&r&r&r&r&r&r&r&r&r&r&r&r&r&r&r&r&r&r&r&r&r&r&r&r&r&r&r&r&r&r&r&r&r&r&r&r&r&r&r&r&r&r&r&r&r&r&r&r&r&r&r&r&r&r&r&r&r&r&r&r&r&r&r&r&r&r&r&r&r&r&r&r&r&r&r&r&r&r&r&r&r&r&r&r&r&r&r&r&r&r&r&r&r&r&r&r&r&r&r&r&r&r&r&r&r&r&r&r&r&r&r&r&r&r&r&r&r&r&r&r&r&r&r&r&r&r&r&r&r&r&r&r&r&r&r&r&r&r&r&r&r&r&r&r&r&r&r&r&r&r&r&r&r&r&r&r&r&r&r&r&r&r&r&r&r&r&r&r&r&r&r&r&r&r&r&r&r&r&r&r&r&r&r&r&r&r&r&r&r&r&r&r&r&r&r&r&r&r&r&r&r&r&r&r&r&r&r&r&r&r&r&r&r&r&r&r&r&r&r&r&r&r&r&r&r&r&r&r&r&r&r&r&r&r&r&r&r&r&r&r&r&r&r&r&r&r&r&r&r&r&r&r&r&r&r&r&r&r&r&r&r&r&r&r&r&r&r&r&r&r&r&r&r&r&r&r&r&r&r&r&r&r&r&r&r&r&r&r&r&r&r&r&r&r&r&r&r&r&r&r&r&r&r&r&r&r&r&r&r&r&r&r&r&r&r&r&r&r&r&r&r&r&r&r&r&r&r&r&r&r&r&r&r&r&r&r&r&r&r&r&r&r&r&r&r&r&r&r&r&r&r&r&r&r&r&r&r&r&r&r&r&r&r&r&r&r&r&r&r&r&r&r&r&r&r&r&r&r&r&r&r&r&r&r&r&r&r&r&r&r&r&r&r&r&r&r&r&r&r&r&r&r&r&r&r&r&r&r&r&r&r&r&r&r&r&r&r&r&r&r&r&r&r&r&r&r&r&r&r&r&r&r&r&r&r&r&r&r&r&r&r&r&r&r&r&r&r&r&r&r&r&r&r&r&r&r&r&r&r&r&r&r&r&r&r&r&r&r&r&r&r&r&r&r&r&r&r&r&r&r&r&r&r&r&r&r&r&r&r&r&r&r&r&r&r&r&r&r&r&r&r&r&r&r&r&r&r&r&r&r&r&r&r&r&r&r&r&r&r&r&r&r&r&r&r&r&r&r&r&r&r&r&r&r&r&r&r&r&r&r&r&r&r&r&r&r&r&r&r&r&r&r&r&r&r&r&r&r&r&r&r&r&r&r&r&r&r&r&r&r&r&r&r&r&r&r&r&r&r&r&r&r&r&r&r&r&r&r&r&r&r&r&r&r&r&r&r&r&r&r&r&r&r&r&r&r&r&r&r&r&r&r&r&r&r&r&r&r&r&r&r&r&r&r&r&r&r&r&r&r&r&r&r&r&r&r&r&r&r&r&r&r&r&r&r&r&r&r&r&r&r&r&r&r&r&r&r&r&r&r&r&r&r&r&r&r&r&r&r&r&r&r&r&r&r&r&r&r&r&r&r&r&r&r&r&r&r&r&r&r&r&r&r&r&r&r&r&r&r&r&r&r&r&r&r&r&r&r&r&r&r&r&r&r&r&r&r&r&r&r&r&r&r&r&r&r&r&r&r&r&r&r&r&r&r&r&r&r&r&r&r&r&r&r&r&r&r&r&r&r&r&r&r&r&r&r&r&r&r&r&r&r&r&r&r&r&r&r&r&r&r&r&r&r&r&r&r&r&r&r&r&r&r&r&r&r&r&r&r&r&r&r&r&r&r&r&r&r&r&r&r&r&r&r&r&r&r&r&r&r&r&r&r&r&r&r&r&r&r&r&r&r&r&r&r&r&r&r&r&r&r&r&r&r&r&r&r&r&r&r&r&r&r&r&r&r&r&r&r&r&r&r&r&r&r&r&r&r&r&r&r&r&r&r&r&r&r&r&r&r&r&r&r&r&r&r&r&r&r&r&r&r&r&r&r&r&r&r&r&r&r&r&r&r&r&r&r&r&r&r&r&r&r&r&r&r&r&r&r&r&r&r&r&r&r&r&r&r&r&r&r&r&r&r&r&r&r&r&r&r&r&r&r&r&r&r&r&r&r&r&r&r&r&r&r&r&r&r&r&r&r&r&r&r&r&r&r&r&r&r&r&r&r&r&r&r&r&r&r&r&r&r&r&r&r&r&r&r&r&r&r&r&r&r&r&r&r&r&r&r&r&r&r&r&r&r&r&r&r&r&r&r&r&r&r&r&r&r&r&r&r&r&r&r&r&r&r&r&r&r&r&r&r&r&r&r&r&r&r&r&r&r&r&r&r&r&r&r&r&r&r&r&r&r&r&r&r&r&r&r&r&r&r&r&r&r&r&r&r&r&r&r&r&r&r&r&r&r&r&r&r&r&r&r&r&r&r&r&r&r&r&r&r&r&r&r&r&r&r&r&r&r&r&r&r&r&r&r&r&r&r&r&r&r&r&r&r&r&r&r&r&r&r&r&r&r&r&r&r&r&r&r&r&r&r&r&r&r&r&r&r&r&r&r&r&r&r&r&r&r&r&r&r&r&r&r&r&r&r&r&r&r&r&r&r&r&r&r&r&r&r&r&r&r&r&r&r&r&r&r&r&r&r&r&r&r&r&r&r&r&r&r&r&r&r&r&r&r&r&r&r&r&r&r&r&r&r&r&r&r&r&r&r&r&r&r&r&r&r&r&r&r&r&r&r&r&r&r&r&r&r&r&r&r&r&r&r&r&r&r&r&r&r&r&r&r&r&r&r&r&r&r&r&r&r&r&r&r&r&r&r&r&r&r&r&r&r&r&r&r&r&r&r&r&r&r&r&r&r&r&r&r&r&r&r&r&r
