0: T120 @0 L240 $ f#&f#&f#&f#&f#&f#&f#&f#&f#&f#&f#&f#&f#&f#&f#&f#&f#&f#&f#&f#&f#&f#&f#&f#&f#&f#&f#o5f#&f#&f#&f#&f#&f#&f#&f#&f#&f#&f#&f#&f#&f#&f#&f#&f#&f#&f#&f#&f#&f#&f#&f#&f#&f#&f#d&d&d&d&d&d&d&d&d&d&d&d&d&d&d&d&d&d&d&d&d&d&d&d&d&d&d&d&d&d&d&d&d&d&d&d&d&d&d&d&d&d&d&d&d&d&d&d&d&d&d&d&d&d&d&d&d&d&d&d&d&d&d&d&d&d&d&d&d&d&d&d&d&d&d&d&d&d&d&d&d&d&d&d&d&d&d&d&d&d&d&d&d&d&d&d&d&d&d&d&d&d&d&d&d&d&d&d&d&d&d&d&d&d&d&d&d&d&d&d&d&d&d&d&d&d&d&d&d&d&d&d&d&d&d&d&d&d&d&d&d&d&d&d&d&d&d&d&d&d&dr&r&r&r&r&r&r&r&r&r&ro4b&b&b&b&b&b&b&b&b&b&b&b&b&b&b&b&b&b&b&b&b&b&b&b&b&b&b&b&b&b&b&b&b&b&b&b&b&b&b&b&b&b&b&b&b&b&b&b&b&b&b&b&b&b&b&b&b&b&b&b&b&b&b&b&b&b&b&b&b&b&b&b&b&b&b&b&b&b&b&b&b&b&b&b&b&b&b&b&b&b&b&b&b&b&b&b&b&b&b&b&b&b&b&b&b&b&b&b&b&b&b&b&b&b&b&b&b&b&b&b&b&b&b&b&b&b&b&b&b&b&b&b&b&b&b&b&b&b&b&b&b&b&b&b&b&b&b&b&b&b&b&b&b&b&b&b&b&b&b&b&b&b&b&b&b&b&b&b&b&b&b&b&b&b&b&b&b&b&b&b&b&b&b&b&b&b&b&b&b&b&b&b&b&b&b&b&b&b&br&r&r&r&r&r&r&r&r&r&r&r&r&r&r&r&ro5c#&c#&c#&c#&c#&c#&c#&c#&c#&c#&c#&c#&c#&c#&c#&c#&c#&c#&c#&c#&c#&c#&c#&c#&c#&c#&c#&c#&c#&c#&c#&c#&c#&c#&c#&c#&c#&c#&c#&c#&c#&c#&c#&c#&c#&c#&c#&c#&c#&c#&c#&c#&c#&c#&c#&c#&c#&c#&c#&c#&c#&c#&c#&c#&c#&c#&c#&c#&c#&c#&c#&c#&c#&c#&c#&c#&c#&c#&c#&c#&c#&c#&c#&c#&c#&c#&c#&c#&c#&c#&c#&c#&c#&c#&c#&c#&c#&c#&c#&c#&c#&c#&c#&c#&c#&c#&c#&c#&c#&c#&c#&c#&c#&c#&c#&c#&c#&c#&c#&c#&c#&c#&c#&c#&c#&c#&c#&c#&c#&c#&c#&c#&c#&c#&c#&c#&c#&c#&c#&c#&c#&c#&c#&c#&c#&c#&c#&c#&c#&c#&c#&c#&c#&c#&c#&c#&c#&c#&c#&c#&c#&c#&c#&c#&c#&c#&c#&c#&c#&c#&c#&c#&c#&c#&c#&c#&c#&c#&c#&c#&c#&c#&c#&c#&c#&c#&c#&c#&c#&c#&c#&c#&c#&c#&c#&c#&c#&c#&c#r&r&r&r&r&r&r&r&r&r&r&r&r&r&r&r&ro4f#&f#&f#&f#&f#&f#&f#&f#&f#&f#&f#&f#&f#&f#&f#&f#&f#&f#&f#&f#&f#&f#&f#&f#&f#&f#&f#&f#&f#&f#&f#&f#&f#&f#&f#&f#&f#&f#&f#&f#&f#&f#&f#&f#&f#&f#&f#&f#&f#&f#&f#&f#&f#&f#&f#&f#&f#&f#&f#&f#&f#&f#&f#&f#&f#&f#&f#&f#&f#&f#&f#&f#&f#&f#&f#&f#&f#&f#&f#&f#rf#&f#&f#&f#&f#&f#&f#&f#&f#&f#&f#&f#&f#o5d&d&d&d&d&d&d&d&d&d&d&d&d&do4a&a&a&a&a&a&a&a&a&a&a&a&a&a&a&a&a&a&a&a&a&a&a&a&a&a&a&a&a&a&a&a&a&a&a&a&a&a&a&a&a&a&a&a&a&a&a&a&a&a&a&a&a&a&a&a&a&a&a&a&a&a&a&a&a&a&a&a&a&a&a&a&a&a&a&a&a&a&a&aro5d&d&d&d&d&d&d&d&d&d&d&d&do4a&a&a&a&a&a&a&a&a&a&a&a&a&af#&f#&f#&f#&f#&f#&f#&f#&f#&f#&f#&f#&f#&f#&f#&f#&f#&f#&f#&f#&f#&f#&f#&f#&f#&f#&f#o5f#&f#&f#&f#&f#&f#&f#&f#&f#&f#&f#&f#&f#&f#&f#&f#&f#&f#&f#&f#&f#&f#&f#&f#&f#&f#&f#d&d&d&d&d&d&d&d&d&d&d&d&d&d&d&d&d&d&d&d&d&d&d&d&d&d&d&d&d&d&d&d&d&d&d&d&d&d&d&d&d&d&d&d&d&d&d&d&d&d&d&d&d&d&d&d&d&d&d&d&d&d&d&d&d&d&d&d&d&d&d&d&d&d&d&d&d&d&d&d&d&d&d&d&d&d&d&d&d&d&d&d&d&d&d&d&d&d&d&d&d&d&d&d&d&d&d&d&d&d&d&d&d&d&d&d&d&d&d&d&d&d&d&d&d&d&d&d&d&d&d&d&d&d&d&d&d&d&d&d&d&d&d&d&d&d&d&d&d&d&dr&r&r&r&r&r&r&r&r&r&ro4b&b&b&b&b&b&b&b&b&b&b&b&b&b&b&b&b&b&b&b&b&b&b&b&b&b&b&b&b&b&b&b&b&b&b&b&b&b&b&b&b&b&b&b&b&b&b&b&b&b&b&b&b&b&b&b&b&b&b&b&b&b&b&b&b&b&b&b&b&b&b&b&b&b&b&b&b&b&b&b&b&b&b&b&b&b&b&b&b&b&b&b&b&b&b&b&b&b&b&b&b&b&b&b&b&b&b&b&b&b&b&b&b&b&b&b&b&b&b&b&b&b&b&b&b&b&b&b&b&b&b&b&b&b&b&b&b&b&b&b&b&b&b&b&b&b&b&b&b&b&b&b&b&b&b&b&b&b&b&b&b&b&b&b&b&b&b&b&b&b&b&b&b&b&b&b&b&b&b&b&b&b&b&b&b&b&b&b&b&b&b&b&b&b&b&b&b&b&br&r&r&r&r&r&r&r&r&r&r&r&r&r&r&r&ro5c#&c#&c#&c#&c#&c#&c#&c#&c#&c#&c#&c#&c#&c#&c#&c#&c#&c#&c#&c#&c#&c#&c#&c#&c#&c#&c#&c#&c#&c#&c#&c#&c#&c#&c#&c#&c#&c#&c#&c#&c#&c#&c#&c#&c#&c#&c#&c#&c#&c#&c#&c#&c#&c#&c#&c#&c#&c#&c#&c#&c#&c#&c#&c#&c#&c#&c#&c#&c#&c#&c#&c#&c#&c#&c#&c#&c#&c#&c#&c#&c#&c#&c#&c#&c#&c#&c#&c#&c#&c#&c#&c#&c#&c#&c#&c#&c#&c#&c#&c#&c#&c#&c#&c#&c#&c#&c#&c#&c#&c#&c#&c#&c#&c#&c#&c#&c#&c#&c#&c#&c#&c#&c#&c#&c#&c#&c#&c#&c#&c#&c#&c#&c#&c#&c#&c#&c#&c#&c#&c#&c#&c#&c#&c#&c#&c#&c#&c#&c#&c#&c#&c#&c#&c#&c#&c#&c#&c#&c#&c#&c#&c#&c#&c#&c#&c#&c#&c#&c#&c#&c#&c#&c#&c#&c#&c#&c#&c#&c#&c#&c#&c#&c#&c#&c#&c#&c#&c#&c#&c#&c#&c#&c#&c#&c#&c#&c#&c#&c#r&r&r&r&r&r&r&r&r&r&r&r&r&r&r&r&r&r&r&r&r&r&r&r&r&r&r&r&r&r&r&r&r&r&r&r&r&r&r&r&r&r&r&r&r&r&r&r&r&r&r&r&r&r&r&r&r&r&r&r&r&r&r&r&r&r&r&r&r&r&r&r&r&r&r&r&r&r&r&r&r&r&r&r&r&r&r&r&r&r&r&r&r&r&r&r&r&ro4f#&f#&f#&f#&f#&f#&f#&f#&f#&f#&f#&f#&f#&f#&f#&f#&f#&f#&f#&f#&f#&f#&f#&f#&f#&f#&f#g&g&g&g&g&g&g&g&g&g&g&g&g&g&g&g&g&g&g&g&g&g&g&g&g&g&g&g&g&g&g&g&g&g&g&g&g&g&g&go5e&e&e&e&e&e&e&e&e&e&e&e&e&e&e&e&e&e&e&e&e&e&e&e&e&e&e&e&e&e&e&e&e&e&e&e&e&e&e&e&ea&a&a&a&a&a&a&a&a&a&a&a&a&a&a&a&a&a&a&a&a&a&a&a&a&a&a
1: T120 @2 L240 $ o3a#&a#&a#&a#&a#&a#&a#&a#&a#&a#&a#&a#ra#&a#&a#&a#&a#&a#&a#&a#&a#&a#&a#&a#r&r&r&r&r&r&r&r&r&r&r&r&r&r&r&r&r&r&r&r&r&r&r&r&r&r&r&r&r&r&r&r&r&r&r&r&r&r&r&r&r&r&r&r&r&r&r&r&r&r&r&r&r&r&r&ra#&a#&a#&a#&a#&a#&a#&a#&a#&a#&a#&a#ra#&a#&a#&a#&a#&a#&a#&a#&a#&a#&a#&a#r&r&r&r&r&r&r&r&r&r&r&r&r&r&r&r&r&r&r&r&r&r&r&r&r&r&r&r&r&r&r&r&r&r&r&r&r&r&r&r&r&r&r&r&r&r&r&r&r&r&r&r&r&r&r&ro2a#&a#&a#&a#&a#&a#&a#&a#&a#&a#&a#&a#&a#&a#&a#&a#&a#&a#&a#&a#&a#&a#&a#&a#&a#&a#&a#&a#&a#&a#&a#&a#&a#&a#&a#&a#&a#&a#&a#&a#&a#&a#&a#&a#&a#&a#&a#&a#&a#&a#r&r&r&ro3g&g&g&g&g&g&g&g&g&g&g&grg&g&g&g&g&g&g&g&g&g&g&gr&r&r&r&r&r&r&r&r&r&r&r&r&r&r&r&r&r&r&r&r&r&r&r&r&r&r&r&r&r&r&r&r&r&r&r&r&r&r&r&r&r&r&r&r&r&r&r&r&r&r&r&r&r&r&rg&g&g&g&g&g&g&g&g&g&g&grg&g&g&g&g&g&g&g&g&g&g&gr&r&r&r&r&r&r&r&r&r&r&r&r&r&r&r&r&r&r&r&r&r&r&r&r&r&r&r&r&r&r&r&r&r&r&r&r&r&r&r&r&r&r&r&r&r&r&r&r&r&r&r&r&r&r&ro2g&g&g&g&g&g&g&g&g&g&g&g&g&g&g&g&g&g&g&g&g&g&g&g&g&g&g&g&g&g&g&g&g&g&g&g&g&g&g&g&g&g&g&g&g&g&g&g&g&gr&r&r&ro3a&a&a&a&a&a&a&a&a&a&a&ara&a&a&a&a&a&a&a&a&a&a&ar&r&r&r&r&r&r&r&r&r&r&r&r&r&r&r&r&r&r&r&r&r&r&r&r&r&r&r&r&r&r&r&r&r&r&r&r&r&r&r&r&r&r&r&r&r&r&r&r&r&r&r&r&r&r&ra&a&a&a&a&a&a&a&a&a&a&ara&a&a&a&a&a&a&a&a&a&a&ar&r&r&r&r&r&r&r&r&r&r&r&r&r&r&r&r&r&r&r&r&r&r&r&r&r&r&r&r&r&r&r&r&r&r&r&r&r&r&r&r&r&r&r&r&r&r&r&r&r&r&r&r&r&r&ro2a&a&a&a&a&a&a&a&a&a&a&a&a&a&a&a&a&a&a&a&a&a&a&a&a&a&a&a&a&a&a&a&a&a&a&a&a&a&a&a&a&a&a&a&a&a&a&a&a&ar&r&r&ro4d&d&d&d&d&d&d&d&d&d&d&drd&d&d&d&d&d&d&d&d&d&d&dr&r&r&r&r&r&r&r&r&r&r&r&r&r&r&r&r&r&r&r&r&r&r&r&r&r&r&r&r&r&r&r&r&r&r&r&r&r&r&r&r&r&r&r&r&r&r&r&r&r&r&r&r&r&r&rd&d&d&d&d&d&d&d&d&d&d&drd&d&d&d&d&d&d&d&d&d&d&dr&r&r&r&r&r&r&r&r&r&r&r&r&r&r&r&r&r&r&r&r&r&r&r&r&r&r&r&r&r&r&r&r&r&r&r&r&r&r&r&r&r&r&r&r&r&r&r&r&r&r&r&r&r&r&ro3d&d&d&d&d&d&d&d&d&d&d&d&d&d&d&d&d&d&d&d&d&d&d&d&d&d&d&d&d&d&d&d&d&d&d&d&d&d&d&d&d&d&d&d&d&d&d&d&d&dr&r&r&ra#&a#&a#&a#&a#&a#&a#&a#&a#&a#&a#&a#ra#&a#&a#&a#&a#&a#&a#&a#&a#&a#&a#&a#r&r&r&r&r&r&r&r&r&r&r&r&r&r&r&r&r&r&r&r&r&r&r&r&r&r&r&r&r&r&r&r&r&r&r&r&r&r&r&r&r&r&r&r&r&r&r&r&r&r&r&r&r&r&r&ra#&a#&a#&a#&a#&a#&a#&a#&a#&a#&a#&a#ra#&a#&a#&a#&a#&a#&a#&a#&a#&a#&a#&a#r&r&r&r&r&r&r&r&r&r&r&r&r&r&r&r&r&r&r&r&r&r&r&r&r&r&r&r&r&r&r&r&r&r&r&r&r&r&r&r&r&r&r&r&r&r&r&r&r&r&r&r&r&r&r&ro2a#&a#&a#&a#&a#&a#&a#&a#&a#&a#&a#&a#&a#&a#&a#&a#&a#&a#&a#&a#&a#&a#&a#&a#&a#&a#&a#&a#&a#&a#&a#&a#&a#&a#&a#&a#&a#&a#&a#&a#&a#&a#&a#&a#&a#&a#&a#&a#&a#&a#r&r&r&ro3g&g&g&g&g&g&g&g&g&g&g&grg&g&g&g&g&g&g&g&g&g&g&gr&r&r&r&r&r&r&r&r&r&r&r&r&r&r&r&r&r&r&r&r&r&r&r&r&r&r&r&r&r&r&r&r&r&r&r&r&r&r&r&r&r&r&r&r&r&r&r&r&r&r&r&r&r&r&rg&g&g&g&g&g&g&g&g&g&g&grg&g&g&g&g&g&g&g&g&g&g&gr&r&r&r&r&r&r&r&r&r&r&r&r&r&r&r&r&r&r&r&r&r&r&r&r&r&r&r&r&r&r&r&r&r&r&r&r&r&r&r&r&r&r&r&r&r&r&r&r&r&r&r&r&r&r&ro2g&g&g&g&g&g&g&g&g&g&g&g&g&g&g&g&g&g&g&g&g&g&g&g&g&g&g&g&g&g&g&g&g&g&g&g&g&g&g&g&g&g&g&g&g&g&g&g&g&gr&r&r&ro3a&a&a&a&a&a&a&a&a&a&a&ara&a&a&a&a&a&a&a&a&a&a&ar&r&r&r&r&r&r&r&r&r&r&r&r&r&r&r&r&r&r&r&r&r&r&r&r&r&r&r&r&r&r&r&r&r&r&r&r&r&r&r&r&r&r&r&r&r&r&r&r&r&r&r&r&r&r&ra&a&a&a&a&a&a&a&a&a&a&ara&a&a&a&a&a&a&a&a&a&a&ar&r&r&r&r&r&r&r&r&r&r&r&r&r&r&r&r&r&r&r&r&r&r&r&r&r&r&r&r&r&r&r&r&r&r&r&r&r&r&r&r&r&r&r&r&r&r&r&r&r&r&r&r&r&r&ro2a&a&a&a&a&a&a&a&a&a&a&a&a&a&a&a&a&a&a&a&a&a&a&a&a&a&a&a&a&a&a&a&a&a&a&a&a&a&a&a&a&a&a&a&a&a&a&a&a&ar&r&r&ro4d&d&d&d&d&d&d&d&d&d&d&drd&d&d&d&d&d&d&d&d&d&d&dr&r&r&r&r&r&r&r&r&r&r&r&r&r&r&r&r&r&r&r&r&r&r&r&r&r&r&r&r&r&r&r&r&r&r&r&r&r&r&r&r&r&r&r&r&r&r&r&r&r&r&r&r&r&r&rd&d&d&d&d&d&d&d&d&d&d&drd&d&d&d&d&d&d&d&d&d&d&dr&r&r&r&r&r&r&r&r&r&r&r&r&r&r&r&r&r&r&r&r&r&r&r&r&r&r&r&r&r&r&r&r&r&r&r&r&r&r&r&r&r&r&r&r&r&r&r&r&r&r&r&r&r&r&ro3f&f&f&f&f&f&f&f&f&f&f&frf&f&f&f&f&f&f&f&f&f&f&fr&ro2f&f&f&f&f&f&f&f&f&f&f&f&f&f&f&f&f&f&f&f&f&f&f&f&fr&r
2: T120 @0 L240 $ r&r&r&r&r&r&r&r&r&r&r&r&r&r&r&r&r&r&r&r&r&r&r&r&r&r&ro5d&d&d&d&d&d&d&d&d&d&d&d&d&d&d&d&d&d&d&d&d&d&d&d&d&d&do4b&b&b&b&b&b&b&b&b&b&b&b&b&b&b&b&b&b&b&b&b&b&b&b&b&b&b&b&b&b&b&b&b&b&b&b&b&b&b&b&b&b&b&b&b&b&b&b&b&b&b&b&b&bd&d&d&d&d&d&d&d&d&d&d&d&d&d&d&d&d&d&d&d&d&d&d&d&d&d&d&d&d&d&d&d&d&d&d&d&d&d&d&d&d&d&d&d&d&d&d&d&d&d&d&d&d&d&d&d&d&d&d&d&d&d&d&d&d&d&d&d&d&d&d&d&d&d&d&d&d&d&d&d&d&d&d&d&d&d&d&d&d&d&d&d&d&d&d&d&d&d&d&d&d&d&d&d&d&d&d&dg&g&g&g&g&g&g&g&g&g&g&g&g&g&g&g&g&g&g&g&g&g&g&g&g&g&g&g&g&g&g&g&g&g&g&g&g&g&g&g&g&g&g&g&g&g&g&g&g&g&g&g&g&gf#&f#&f#&f#&f#&f#&f#&f#&f#&f#&f#&f#&f#&f#&f#&f#&f#&f#&f#&f#&f#&f#&f#&f#&f#&f#&f#e&e&e&e&e&e&e&e&e&e&e&e&e&e&e&e&e&e&e&e&e&e&e&e&e&e&ed&d&d&d&d&d&d&d&d&d&d&d&d&d&d&d&d&d&d&d&d&d&d&d&d&d&dc#&c#&c#&c#&c#&c#&c#&c#&c#&c#&c#&c#&c#&c#&c#&c#&c#&c#&c#&c#&c#&c#&c#&c#&c#&c#&c#o3b&b&b&b&b&b&b&b&b&b&b&b&b&b&b&b&b&b&b&b&b&b&b&b&b&b&b&b&b&b&b&b&b&b&b&b&b&b&b&b&b&b&b&b&b&b&b&b&b&b&b&b&b&bo4a&a&a&a&a&a&a&a&a&a&a&a&a&a&a&a&a&a&a&a&a&a&a&a&a&a&a&a&a&a&a&a&a&a&a&a&a&a&a&a&a&a&a&a&a&a&a&a&a&a&a&a&a&ag&g&g&g&g&g&g&g&g&g&g&g&g&g&g&g&g&g&g&g&g&g&g&g&g&g&gf#&f#&f#&f#&f#&f#&f#&f#&f#&f#&f#&f#&f#&f#&f#&f#&f#&f#&f#&f#&f#&f#&f#&f#&f#&f#&f#e&e&e&e&e&e&e&e&e&e&e&e&e&e&e&e&e&e&e&e&e&e&e&e&e&e&e&e&e&e&e&e&e&e&e&e&e&e&e&e&e&e&e&e&e&e&e&e&e&e&e&e&e&e&e&e&e&e&e&e&e&e&e&e&e&e&e&e&e&e&e&e&e&e&e&e&e&e&e&e&e&e&e&e&e&e&e&e&e&e&e&e&e&e&e&e&e&e&e&e&e&e&e&e&e&e&e&e&e&e&e&e&e&e&e&e&er&r&r&r&r&r&r&r&r&r&r&r&r&r&r&r&r&r&r&r&r&r&r&r&r&r&r&r&r&r&r&r&r&r&r&r&r&r&r&r&r&r&r&r&r&r&r&r&r&r&r&r&r&r&r&r&r&r&r&r&r&r&r&r&r&r&r&r&r&r&r&r&r&r&r&r&r&r&r&r&r&r&r&r&ra&a&a&a&a&a&a&a&a&a&a&a&a&af#&f#&f#&f#&f#&f#&f#&f#&f#&f#&f#&f#&f#&f#&f#&f#&f#&f#&f#&f#&f#&f#&f#&f#&f#&f#&f#&f#&f#&f#&f#&f#&f#&f#&f#&f#&f#&f#&f#&f#&f#&f#&f#&f#&f#&f#&f#&f#&f#&f#&f#&f#&f#&f#o3a&a&a&a&a&a&a&a&a&a&a&a&a&a&a&a&a&a&a&a&a&a&a&a&a&a&ao4a&a&a&a&a&a&a&a&a&a&a&a&af#&f#&f#&f#&f#&f#&f#&f#&f#&f#&f#&f#&f#&f#&f#&f#&f#&f#&f#&f#&f#&f#&f#r&r&r&r&r&r&r&r&r&r&r&r&r&r&r&r&r&ro5d&d&d&d&d&d&d&d&d&d&d&d&d&d&d&d&d&d&d&d&d&d&d&d&d&d&do4b&b&b&b&b&b&b&b&b&b&b&b&b&b&b&b&b&b&b&b&b&b&b&b&b&b&b&b&b&b&b&b&b&b&b&b&b&b&b&b&b&b&b&b&b&b&b&b&b&b&b&b&b&b&b&b&b&b&b&b&b&b&b&b&b&b&b&b&b&b&b&b&b&b&b&b&b&b&b&b&b&b&b&b&b&b&b&b&b&b&b&b&b&b&b&b&b&b&b&b&b&b&b&b&b&b&b&b&b&b&b&b&b&b&b&b&b&b&b&b&b&b&b&b&b&b&b&b&b&b&b&b&b&b&b&b&b&b&b&b&b&b&b&b&b&b&b&b&b&b&b&b&b&b&b&b&b&b&b&b&brg&g&g&g&g&g&g&g&g&g&g&g&g&g&g&g&g&g&g&g&g&g&g&g&g&g&g&g&g&g&g&g&g&g&g&g&g&g&g&g&g&g&g&g&g&g&g&g&g&g&g&g&g&g&g&g&g&g&g&g&g&g&g&g&g&g&g&g&g&g&g&g&g&g&g&g&g&g&g&g&g&g&g&g&g&g&g&g&g&g&g&g&g&g&g&g&g&g&g&g&g&g&g&g&g&g&g&g&g&g&g&g&g&g&g&g&g&g&g&g&g&g&g&g&g&g&g&g&g&g&g&g&g&g&g&g&g&g&g&g&g&g&g&g&g&g&g&g&g&g&g&g&g&g&g&g&g&g&g&g&g&g&g&g&g&g&g&g&g&g&g&g&g&g&g&g&g&g&g&g&g&g&g&g&g&g&g&g&g&g&g&g&g&g&g&g&g&g&g&g&g&g&g&g&g&g&g&g&g&g&g&gr&r&r&ra&a&a&a&a&a&a&a&a&a&a&a&a&a&a&a&a&a&a&a&a&a&a&a&a&a&a&a&a&a&a&a&a&a&a&a&a&a&a&a&a&a&a&a&a&a&a&a&a&a&a&a&a&a&a&a&a&a&a&a&a&a&a&a&a&a&a&a&a&a&a&a&a&a&a&a&a&a&a&a&a&a&a&a&a&a&a&a&a&a&a&a&a&a&a&a&a&a&a&a&a&a&a&a&a&a&a&a&a&a&a&a&a&a&a&a&a&a&a&a&a&a&a&a&a&a&a&a&a&a&a&a&a&a&a&a&a&a&a&a&a&a&a&a&a&a&a&a&a&a&a&a&a&a&a&a&a&a&a&a&a&a&a&a&a&a&a&a&a&a&a&a&a&a&a&a&a&a&a&a&a&a&a&a&a&a&a&a&a&a&a&a&a&a&a&a&a&a&a&a&a&a&a&a&a&a&a&a&a&a&a&ar&r&r&ra&a&a&a&a&a&a&a&a&a&a&a&a&a&a&a&a&a&a&a&a&a&a&a&a&a&a&a&a&a&a&a&a&a&a&a&a&a&a&a&a&a&a&a&a&a&a&a&a&a&a&a&a&a&a&a&a&a&a&a&a&a&a&a&a&a&a&a&a&a&a&a&a&a&a&a&a&a&a&a&a&a&a&a&a&a&a&a&a&ar&r&r&r&r&r&r&r&r&r&r&r&r&r&r&r&r&r&r&r&r&r&r&r&r&r&r&r&r&r&r&r&r&r&r&r&r&r&r&r&r&r&r&r&r&r&r&r&r&r&r&r&r&r&r&r&r&ro5c#&c#&c#&c#&c#&c#&c#&c#&c#&c#&c#&c#&c#&c#&c#&c#&c#&c#&c#&c#&c#&c#&c#&c#&c#&c#&c#&c#&c#&c#&c#&c#&c#&c#&c#&c#&c#&c#&c#&c#&c#f#&f#&f#&f#&f#&f#&f#&f#&f#&f#&f#&f#&f#&f#&f#&f#&f#&f#&f#&f#&f#&f#&f#&f#&f#&f#&f#
3: T120 @2 L240 $ r&r&r&r&r&r&r&r&r&r&r&r&r&r&r&r&r&r&r&r&r&r&r&r&r&r&r&r&r&r&r&r&r&r&r&r&r&r&r&r&r&r&r&r&r&r&r&r&r&r&r&r&r&r&r&r&r&r&r&r&r&r&r&r&r&r&r&r&r&r&r&r&r&r&r&r&r&r&r&r&r&r&r&r&r&r&r&r&r&r&r&r&r&r&r&r&r&r&r&r&r&r&r&r&r&r&r&r&r&r&r&r&r&r&r&r&r&r&r&r&r&r&r&r&r&r&r&r&r&r&r&r&r&r&r&r&r&r&r&r&r&r&r&r&r&r&r&r&r&r&r&r&r&r&r&r&r&r&r&r&r&r&r&r&r&r&r&r&r&r&r&r&r&r&r&r&r&r&r&r&r&r&r&r&r&r&r&r&r&r&r&r&r&r&r&r&r&r&r&r&r&r&r&r&r&r&r&r&r&r&r&r&r&r&r&r&r&r&r&r&r&r&r&r&r&r&r&r&r&r&r&r&r&r&r&r&r&r&r&r&r&r&r&r&r&r&r&r&r&r&r&r&r&r&r&r&r&r&r&r&r&r&r&r&r&r&r&r&r&r&r&r&r&r&r&r&r&r&r&r&r&r&r&r&r&r&r&r&r&r&r&r&r&r&r&r&r&r&r&r&r&r&r&r&r&r&r&r&r&r&r&r&r&r&r&r&r&r&r&r&r&r&r&r&r&r&r&r&r&r&r&r&r&r&r&r&r&r&r&r&r&r&r&r&r&r&r&r&r&r&r&r&r&r&r&r&r&r&r&r&r&r&r&r&r&r&r&r&r&r&r&r&r&r&r&r&r&r&r&r&r&r&r&r&r&r&r&r&r&r&r&r&r&r&r&r&r&r&r&r&r&r&r&r&r&r&r&r&r&r&r&r&r&r&r&r&r&r&r&r&r&r&r&r&r&r&r&r&r&r&r&r&r&r&r&r&r&r&r&r&r&r&r&r&r&r&r&r&r&r&r&r&r&r&r&r&r&r&r&r&r&r&r&r&r&r&r&r&r&r&r&r&r&r&r&r&r&r&r&r&r&r&r&r&r&r&r&r&r&r&r&r&r&r&r&r&r&r&r&r&r&r&r&r&r&r&r&r&r&r&r&r&r&r&r&r&r&r&r&r&r&r&r&r&r&r&r&r&r&r&r&r&r&r&r&r&r&r&r&r&r&r&r&r&r&r&r&r&r&r&r&r&r&r&r&r&r&r&r&r&r&r&r&r&r&r&r&r&r&r&r&r&r&r&r&r&r&r&r&r&r&r&r&r&r&r&r&r&r&r&r&r&r&r&r&r&r&r&r&r&r&r&r&r&r&r&r&r&r&r&r&r&r&r&r&r&r&r&r&r&r&r&r&r&r&r&r&r&r&r&r&r&r&r&r&r&r&r&r&r&r&r&r&r&r&r&r&r&r&r&r&r&r&r&r&r&r&r&r&r&r&r&r&r&r&r&r&r&r&r&r&r&r&r&r&r&r&r&r&r&r&r&r&r&r&r&r&r&r&r&r&r&r&r&r&r&r&r&r&r&r&r&r&r&r&r&r&r&r&r&r&r&r&r&r&r&r&r&r&r&r&r&r&r&r&r&r&r&r&r&r&r&r&r&r&r&r&r&r&r&r&r&r&r&r&r&r&r&r&r&r&r&r&r&r&r&r&r&r&r&r&r&r&r&r&r&r&r&r&r&r&r&r&r&r&r&r&r&r&r&r&r&r&r&r&r&r&r&r&r&r&r&r&r&r&r&r&r&r&r&r&r&r&r&r&r&r&r&r&r&r&r&r&r&r&r&r&r&r&r&r&r&r&r&r&r&r&r&r&r&r&r&r&r&r&r&r&r&r&r&r&r&r&r&r&r&r&r&r&r&r&r&r&r&r&r&r&r&r&r&r&r&r&r&r&r&r&r&r&r&r&r&r&r&r&r&r&r&r&r&r&r&r&r&r&r&r&r&r&r&r&r&r&r&r&r&r&r&r&r&r&r&r&r&r&r&r&r&r&r&r&r&r&r&r&r&r&r&r&r&r&r&r&r&r&r&r&r&r&r&r&r&r&r&r&r&r&r&r&r&r&r&r&r&r&r&r&r&r&r&r&r&r&r&r&r&r&r&r&r&r&r&r&r&r&r&r&r&r&r&r&r&r&r&r&r&r&r&r&r&r&r&r&r&r&r&r&r&r&r&r&r&r&r&r&r&r&r&r&r&r&r&r&r&r&r&r&r&r&r&r&r&r&r&r&r&r&r&r&r&r&r&r&r&r&r&r&r&r&r&r&r&r&r&r&r&r&r&r&r&r&r&r&r&r&r&r&r&r&r&r&r&r&r&r&r&r&r&r&r&r&r&r&r&r&r&r&r&r&r&r&r&r&r&r&r&r&r&r&r&r&r&r&r&r&r&r&r&r&r&r&r&r&r&r&r&r&r&r&r&r&r&r&r&r&r&r&r&r&r&r&r&r&r&r&r&r&r&r&r&r&r&r&r&r&r&r&r&r&r&r&r&r&r&r&r&r&r&r&r&r&r&r&r&r&r&r&r&r&r&r&r&r&r&r&r&r&r&r&r&r&r&r&r&r&r&r&r&r&r&r&r&r&r&r&r&r&r&r&r&r&r&r&r&r&r&r&r&r&r&r&r&r&r&r&r&r&r&r&r&r&r&r&r&r&r&r&r&r&r&r&r&r&r&r&r&r&r&r&r&r&r&r&r&r&r&r&r&r&r&r&r&r&r&r&r&r&r&r&r&r&r&r&r&r&r&r&r&r&r&r&r&r&r&r&r&r&r&r&r&r&r&r&r&r&r&r&r&r&r&r&r&r&r&r&r&r&r&r&r&r&r&r&r&r&r&r&r&r&r&r&r&r&r&r&r&r&r&r&r&r&r&r&r&r&r&r&r&r&r&r&r&r&r&r&r&r&r&r&r&r&r&r&r&r&r&r&r&r&r&r&r&r&r&r&r&r&r&r&r&r&r&r&r&r&r&r&r&r&r&r&r&r&r&r&r&r&r&r&r&r&r&r&r&r&r&r&r&r&r&r&r&r&r&r&r&r&r&r&r&r&r&r&r&r&r&r&r&r&r&r&r&r&r&r&r&r&r&r&r&r&r&r&r&r&r&r&r&r&r&r&r&r&r&r&r&r&r&r&r&r&r&r&r&r&r&r&r&r&r&r&r&r&r&r&r&r&r&r&r&r&r&r&r&r&r&r&r&r&r&r&r&r&r&r&r&r&r&r&r&r&r&r&r&r&r&r&r&r&r&r&r&r&r&r&r&r&r&r&r&r&r&r&r&r&r&r&r&r&r&r&r&r&r&r&r&r&r&r&r&r&r&r&r&r&r&r&r&r&r&r&r&r&r&r&r&r&r&r&r&r&r&r&r&r&r&r&r&r&r&r&r&r&r&r&r&r&r&r&r&r&r&r&r&r&r&r&r&r&r&r&r&r&r&r&r&r&r&r&r&r&r&r&r&r&r&r&r&r&r&r&r&r&r&r&r&r&r&r&r&r&r&r&r&r&r&r&r&r&r&r&r&r&r&r&r&r&r&r&r&r&r&r&r&r&r&r&r&r&r&r&r&r&r&r&r&r&r&r&r&r&r&r&r&r&r&r&r&r&r&r&r&r&r&r&r&r&r&r&r&r&r&r&r&r&r&r&r&r&r&r&r&r&r&r&r&r&r&r&r&r&r&r&r&r&r&r&r&r&r&r&r&r&r&r&r&r&r&r&r&r&r&r&r&r&r&r&r&r&r&r&r&r&r&r&r&r&r&r&r&r&r&r&r&r&r&r&r&r&r&r&r&r&r&r&r&r&r&r&r&r&r&r&r&r&r&r&r
