0: T120 @0 L240 $ a&a&a&a&a&a&a&a&a&a&a&a&a&a&a&a&a&a&a&a&a&a&a&a&a&a&a&a&a&a&a&a&a&a&a&a&a&a&a&a&a&a&a&a&a&a&a&a&a&a&a&a&a&a&a&a&a&a&a&ao5d&d&d&d&d&d&d&d&d&d&d&d&d&d&d&d&d&d&d&d&d&d&d&d&d&d&d&d&d&d&d&d&d&d&d&d&d&d&d&d&d&d&d&d&d&d&d&d&d&d&d&d&d&d&d&d&d&d&d&df#&f#&f#&f#&f#&f#&f#&f#&f#&f#&f#&f#&f#&f#&f#&f#&f#&f#&f#&f#&f#&f#&f#&f#&f#&f#&f#&f#&f#&f#&f#&f#&f#&f#&f#&f#&f#&f#&f#&f#&f#&f#&f#&f#&f#&f#&f#&f#&f#&f#&f#&f#&f#&f#&f#&f#&f#&f#&f#&f#&f#&f#&f#&f#&f#&f#&f#&f#&f#&f#&f#&f#&f#&f#&f#&f#&f#&f#&f#&f#&f#&f#&f#&f#&f#&f#&f#&f#&f#&f#o4a&a&a&a&a&a&a&a&a&a&a&a&a&a&a&a&a&a&a&a&a&a&a&a&a&a&a&a&a&ao5c#&c#&c#&c#&c#&c#&c#&c#&c#&c#&c#&c#&c#&c#&c#&c#&c#&c#&c#&c#&c#&c#&c#&c#&c#&c#&c#&c#&c#&c#&c#&c#&c#&c#&c#&c#&c#&c#&c#&c#&c#&c#&c#&c#&c#&c#&c#&c#&c#&c#&c#&c#&c#&c#&c#&c#&c#&c#&c#&c#&c#&c#&c#&c#&c#&c#&c#&c#&c#&c#&c#&c#&c#&c#&c#&c#&c#&c#&c#&c#&c#&c#&c#&c#&c#&c#&c#&c#&c#&c#o4b&b&b&b&b&b&b&b&b&b&b&b&b&b&ba&a&a&a&a&a&a&a&a&a&a&a&a&a&ao5e&e&e&e&e&e&e&e&e&e&e&e&e&e&e&e&e&e&e&e&e&e&e&e&e&e&e&e&e&e&e&e&e&e&e&e&e&e&e&e&e&e&e&e&e&e&e&e&e&e&e&e&e&e&e&e&e&e&e&e&e&e&e&e&e&e&e&e&e&e&e&e&e&e&e&e&e&e&e&e&e&e&e&e&e&e&e&e&e&e&e&e&e&e&e&e&e&e&e&e&e&e&e&e&e&e&e&e&e&e&e&e&e&e&e&e&e&e&e&ed&d&d&d&d&d&d&d&d&d&d&d&d&d&d&d&d&d&d&d&d&d&d&d&d&d&d&d&d&d&d&d&d&d&d&d&d&d&d&d&d&d&d&d&d&d&d&d&d&d&d&d&d&d&d&d&d&d&d&d&d&d&d&d&d&d&d&d&d&d&d&d&d&d&d&d&d&d&d&d&d&d&d&d&d&d&d&d&d&do4f&f&f&f&f&f&f&f&f&f&f&f&f&f&fo5d&d&d&d&d&d&d&d&d&d&d&d&d&d&df&f&f&f&f&f&f&f&f&f&f&f&f&f&f&f&f&f&f&f&f&f&f&f&f&f&f&f&f&f&f&f&f&f&f&f&f&f&f&f&f&f&f&f&f&f&f&f&f&f&f&f&f&f&f&f&f&f&f&f&f&f&f&f&f&f&f&f&f&f&f&f&f&f&f&f&f&f&f&f&f&f&f&f&f&f&f&f&f&f&f&f&f&f&f&f&f&f&f&f&f&f&f&f&f&f&f&f&f&f&f&f&f&f&f&f&f&f&f&fg&g&g&g&g&g&g&g&g&g&g&g&g&g&g&g&g&g&g&g&g&g&g&g&g&g&g&g&g&g&g&g&g&g&g&g&g&g&g&g&g&g&g&g&g&g&g&g&g&g&g&g&g&g&g&g&g&g&g&g&g&g&g&g&g&g&g&g&g&g&g&g&g&g&g&g&g&g&g&g&g&g&g&g&g&g&g&g&g&g&g&g&g&g&g&g&g&g&g&g&g&g&g&g&g&g&g&g&g&g&g&g&g&g&g&g&g&g&g&g&g&g&g&g&g&g&g&g&g&g&g&g&g&g&g&g&g&g&g&g&g&g&g&g&g&g&g&g&g&g&g&g&g&g&g&g&g&g&g&g&g&g&g&g&g&g&g&g&g&g&g&g&g&g&g&g&g&g&g&g&g&g&g&g&g&g&g&g&g&g&g&g&g&g&g&g&g&g&g&g&g&g&g&g&g&g&g&g&g&g&g&g&g&g&g&g&g&g&g&g&g&g&g&g&g&g&g&g&g&g&g&g&g&g&g&g&g&g&g&go4a&a&a&a&a&a&a&a&a&a&a&a&a&a&a&a&a&a&a&a&a&a&a&a&a&a&a&a&a&a&a&a&a&a&a&a&a&a&a&a&a&a&a&a&a&a&a&a&a&a&a&a&a&a&a&a&a&a&a&ao5d&d&d&d&d&d&d&d&d&d&d&d&d&d&d&d&d&d&d&d&d&d&d&d&d&d&d&d&d&d&d&d&d&d&d&d&d&d&d&d&d&d&d&d&d&d&d&d&d&d&d&d&d&d&d&d&d&d&d&df#&f#&f#&f#&f#&f#&f#&f#&f#&f#&f#&f#&f#&f#&f#&f#&f#&f#&f#&f#&f#&f#&f#&f#&f#&f#&f#&f#&f#&f#&f#&f#&f#&f#&f#&f#&f#&f#&f#&f#&f#&f#&f#&f#&f#&f#&f#&f#&f#&f#&f#&f#&f#&f#&f#&f#&f#&f#&f#&f#&f#&f#&f#&f#&f#&f#&f#&f#&f#&f#&f#&f#&f#&f#&f#&f#&f#&f#&f#&f#&f#&f#&f#&f#&f#&f#&f#&f#&f#&f#o4a&a&a&a&a&a&a&a&a&a&a&a&a&a&a&a&a&a&a&a&a&a&a&a&a&a&a&a&a&ao5c#&c#&c#&c#&c#&c#&c#&c#&c#&c#&c#&c#&c#&c#&c#&c#&c#&c#&c#&c#&c#&c#&c#&c#&c#&c#&c#&c#&c#&c#&c#&c#&c#&c#&c#&c#&c#&c#&c#&c#&c#&c#&c#&c#&c#&c#&c#&c#&c#&c#&c#&c#&c#&c#&c#&c#&c#&c#&c#&c#&c#&c#&c#&c#&c#&c#&c#&c#&c#&c#&c#&c#&c#&c#&c#&c#&c#&c#&c#&c#&c#&c#&c#&c#&c#&c#&c#&c#&c#&c#o4b&b&b&b&b&b&b&b&b&b&b&b&b&b&ba&a&a&a&a&a&a&a&a&a&a&a&a&a&ao5e&e&e&e&e&e&e&e&e&e&e&e&e&e&e&e&e&e&e&e&e&e&e&e&e&e&e&e&e&e&e&e&e&e&e&e&e&e&e&e&e&e&e&e&e&e&e&e&e&e&e&e&e&e&e&e&e&e&e&e&e&e&e&e&e&e&e&e&e&e&e&e&e&e&e&e&e&e&e&e&e&e&e&e&e&e&e&e&e&e&e&e&e&e&e&e&e&e&e&e&e&e&e&e&e&e&e&e&e&e&e&e&e&e&e&e&e&e&e&e&e&e&e&e&e&e&e&e&e&e&e&e&e&e&e&e&e&e&er&r&r&r&r&r&r&r&r&r&r&r&r&r&r&r&r&r&r&r&r&r&r&r&r&r&r&r&r&r&r&r&r&r&r&r&r&r&r&r&r&r&r&r&r&r&r&r&r&r&r&r&r&r&r&r&r&r&r&r&r&r&r&r&r&r&r&r&r&r&rf&f&f&f&f&f&f&f&f&f&f&f&f&f&f&f&f&f&f&f&f&f&f&f&f&f&f&f&f&fg&g&g&g&g&g&g&g&g&g&g&g&g&g&g&g&g&g&g&g&g&g&g&g&g&g&g&g&g&gf&f&f&f&f&f&f&f&f&f&f&f&f&f&f&f&f&f&f&f&f&f&f&f&f&f&f&f&f&fe&e&e&e&e&e&e&e&e&e&e&e&e&e&e&e&e&e&e&e&e&e&e&e&e&e&e&e&e&eg&g&g&g&g&g&g&g&g&g&g&g&g&g&g&g&g&g&g&g&g&g&g&g&g&g&g&g&g&g&g&g&g&g&g&g&g&g&g&g&g&g&g&g&g&g&g&g&g&g&g&g&g&g&g&g&g&g&g&g&g&g&g&g&g&g&g&g&g&g&g&g&g&g&g&g&g&g&g&g&g&g&g&g&g&g&g&g&g&g&g&g&g&g&g&g&g&g&g&g&g&g&g&g&g&g&g&g&g&g&g&g&g&g&g&g&g&g&g&go4a&a&a&a&a&a&a&a&a&a&a&a&a&a&a&a&a&a&a&a&a&a&a&a&a&a&a&a&a&a&a&a&a&a&a&a&a&a&a&a&a&a&a&a&a&a&a&a&a&a&a&a&a&a&a&a&a&a&a&ag&g&g&g&g&g&g&g&g&g&g&g&g&g&ga&a&a&a&a&a&a&a&a&a&a&a&a&a&ao5d&d&d&d&d&d&d&d&d&d&d&d&d&d&d&d&d&d&d&d&d&d&d&d&d&d&d&d&d&d&d&d&d&d&d&d&d&d&d&d&d&d&d&d&d&d&d&d&d&d&d&d&d&d&d&d&d&d&d&d
1: T120 @2 L240 $ d&d&d&d&d&d&d&d&d&d&d&d&d&d&d&d&d&d&d&d&d&d&d&d&d&dr&r&r&rd&d&d&d&d&d&d&d&d&d&d&d&dr&rd&d&d&d&d&d&d&d&d&d&d&d&dr&rd&d&d&d&d&d&d&d&d&d&d&d&d&d&d&d&d&d&d&d&d&d&d&d&d&dr&r&r&rd&d&d&d&d&d&d&d&d&d&d&d&dr&rd&d&d&d&d&d&d&d&d&d&d&d&dr&rd&d&d&d&d&d&d&d&d&d&d&d&d&d&d&d&d&d&d&d&d&d&d&d&d&dr&r&r&rd&d&d&d&d&d&d&d&d&d&d&d&dr&rd&d&d&d&d&d&d&d&d&d&d&d&dr&rd&d&d&d&d&d&d&d&d&d&d&d&d&d&d&d&d&d&d&d&d&d&d&d&d&dr&r&r&rd&d&d&d&d&d&d&d&d&d&d&d&dr&rd&d&d&d&d&d&d&d&d&d&d&d&dr&ro3a&a&a&a&a&a&a&a&a&a&a&a&a&a&a&a&a&a&a&a&a&a&a&a&a&ar&r&r&ra&a&a&a&a&a&a&a&a&a&a&a&ar&ra&a&a&a&a&a&a&a&a&a&a&a&ar&ra&a&a&a&a&a&a&a&a&a&a&a&a&a&a&a&a&a&a&a&a&a&a&a&a&ar&r&r&ra&a&a&a&a&a&a&a&a&a&a&a&ar&ra&a&a&a&a&a&a&a&a&a&a&a&ar&ra&a&a&a&a&a&a&a&a&a&a&a&a&a&a&a&a&a&a&a&a&a&a&a&a&ar&r&r&ra&a&a&a&a&a&a&a&a&a&a&a&ar&ra&a&a&a&a&a&a&a&a&a&a&a&ar&ra&a&a&a&a&a&a&a&a&a&a&a&a&a&a&a&a&a&a&a&a&a&a&a&a&ar&r&r&ra&a&a&a&a&a&a&a&a&a&a&a&ar&ra&a&a&a&a&a&a&a&a&a&a&a&ar&ra#&a#&a#&a#&a#&a#&a#&a#&a#&a#&a#&a#&a#&a#&a#&a#&a#&a#&a#&a#&a#&a#&a#&a#&a#&a#r&r&r&ra#&a#&a#&a#&a#&a#&a#&a#&a#&a#&a#&a#&a#r&ra#&a#&a#&a#&a#&a#&a#&a#&a#&a#&a#&a#&a#r&ra#&a#&a#&a#&a#&a#&a#&a#&a#&a#&a#&a#&a#&a#&a#&a#&a#&a#&a#&a#&a#&a#&a#&a#&a#&a#r&r&r&ra#&a#&a#&a#&a#&a#&a#&a#&a#&a#&a#&a#&a#r&ra#&a#&a#&a#&a#&a#&a#&a#&a#&a#&a#&a#&a#r&ra#&a#&a#&a#&a#&a#&a#&a#&a#&a#&a#&a#&a#&a#&a#&a#&a#&a#&a#&a#&a#&a#&a#&a#&a#&a#r&r&r&ra#&a#&a#&a#&a#&a#&a#&a#&a#&a#&a#&a#&a#r&ra#&a#&a#&a#&a#&a#&a#&a#&a#&a#&a#&a#&a#r&ra#&a#&a#&a#&a#&a#&a#&a#&a#&a#&a#&a#&a#&a#&a#&a#&a#&a#&a#&a#&a#&a#&a#&a#&a#&a#r&r&r&ra#&a#&a#&a#&a#&a#&a#&a#&a#&a#&a#&a#&a#r&ra#&a#&a#&a#&a#&a#&a#&a#&a#&a#&a#&a#&a#r&ro4c&c&c&c&c&c&c&c&c&c&c&c&c&c&c&c&c&c&c&c&c&c&c&c&c&cr&r&r&rc&c&c&c&c&c&c&c&c&c&c&c&cr&rc&c&c&c&c&c&c&c&c&c&c&c&cr&rc&c&c&c&c&c&c&c&c&c&c&c&c&c&c&c&c&c&c&c&c&c&c&c&c&cr&r&r&rc&c&c&c&c&c&c&c&c&c&c&c&cr&rc&c&c&c&c&c&c&c&c&c&c&c&cr&rc&c&c&c&c&c&c&c&c&c&c&c&c&c&c&c&c&c&c&c&c&c&c&c&c&cr&r&r&rc&c&c&c&c&c&c&c&c&c&c&c&cr&rc&c&c&c&c&c&c&c&c&c&c&c&cr&rc&c&c&c&c&c&c&c&c&c&c&c&c&c&c&c&c&c&c&c&c&c&c&c&c&cr&r&r&rc&c&c&c&c&c&c&c&c&c&c&c&cr&rc&c&c&c&c&c&c&c&c&c&c&c&cr&rd&d&d&d&d&d&d&d&d&d&d&d&d&d&d&d&d&d&d&d&d&d&d&d&d&dr&r&r&rd&d&d&d&d&d&d&d&d&d&d&d&dr&rd&d&d&d&d&d&d&d&d&d&d&d&dr&rd&d&d&d&d&d&d&d&d&d&d&d&d&d&d&d&d&d&d&d&d&d&d&d&d&dr&r&r&rd&d&d&d&d&d&d&d&d&d&d&d&dr&rd&d&d&d&d&d&d&d&d&d&d&d&dr&rd&d&d&d&d&d&d&d&d&d&d&d&d&d&d&d&d&d&d&d&d&d&d&d&d&dr&r&r&rd&d&d&d&d&d&d&d&d&d&d&d&dr&rd&d&d&d&d&d&d&d&d&d&d&d&dr&rd&d&d&d&d&d&d&d&d&d&d&d&d&d&d&d&d&d&d&d&d&d&d&d&d&dr&r&r&rd&d&d&d&d&d&d&d&d&d&d&d&dr&rd&d&d&d&d&d&d&d&d&d&d&d&dr&ro3a&a&a&a&a&a&a&a&a&a&a&a&a&a&a&a&a&a&a&a&a&a&a&a&a&ar&r&r&ra&a&a&a&a&a&a&a&a&a&a&a&ar&ra&a&a&a&a&a&a&a&a&a&a&a&ar&ra&a&a&a&a&a&a&a&a&a&a&a&a&a&a&a&a&a&a&a&a&a&a&a&a&ar&r&r&ra&a&a&a&a&a&a&a&a&a&a&a&ar&ra&a&a&a&a&a&a&a&a&a&a&a&ar&ra&a&a&a&a&a&a&a&a&a&a&a&a&a&a&a&a&a&a&a&a&a&a&a&a&ar&r&r&ra&a&a&a&a&a&a&a&a&a&a&a&ar&ra&a&a&a&a&a&a&a&a&a&a&a&ar&ra&a&a&a&a&a&a&a&a&a&a&a&a&a&a&a&a&a&a&a&a&a&a&a&a&ar&r&r&ra&a&a&a&a&a&a&a&a&a&a&a&ar&ra&a&a&a&a&a&a&a&a&a&a&a&ar&ra#&a#&a#&a#&a#&a#&a#&a#&a#&a#&a#&a#&a#&a#&a#&a#&a#&a#&a#&a#&a#&a#&a#&a#&a#&a#r&r&r&ra#&a#&a#&a#&a#&a#&a#&a#&a#&a#&a#&a#&a#r&ra#&a#&a#&a#&a#&a#&a#&a#&a#&a#&a#&a#&a#r&ra#&a#&a#&a#&a#&a#&a#&a#&a#&a#&a#&a#&a#&a#&a#&a#&a#&a#&a#&a#&a#&a#&a#&a#&a#&a#r&r&r&ra#&a#&a#&a#&a#&a#&a#&a#&a#&a#&a#&a#&a#r&ra#&a#&a#&a#&a#&a#&a#&a#&a#&a#&a#&a#&a#r&ro4c&c&c&c&c&c&c&c&c&c&c&c&c&c&c&c&c&c&c&c&c&c&c&c&c&cr&r&r&rc&c&c&c&c&c&c&c&c&c&c&c&cr&rc&c&c&c&c&c&c&c&c&c&c&c&cr&rc&c&c&c&c&c&c&c&c&c&c&c&c&c&c&c&c&c&c&c&c&c&c&c&c&cr&r&r&rc&c&c&c&c&c&c&c&c&c&c&c&cr&rc&c&c&c&c&c&c&c&c&c&c&c&cr&rd#&d#&d#&d#&d#&d#&d#&d#&d#&d#&d#&d#&d#&d#&d#&d#&d#&d#&d#&d#&d#&d#&d#&d#&d#&d#r&r&r&rd#&d#&d#&d#&d#&d#&d#&d#&d#&d#&d#&d#&d#r&rd#&d#&d#&d#&d#&d#&d#&d#&d#&d#&d#&d#&d#r&rd#&d#&d#&d#&d#&d#&d#&d#&d#&d#&d#&d#&d#&d#&d#&d#&d#&d#&d#&d#&d#&d#&d#&d#&d#&d#r&r&r&rd#&d#&d#&d#&d#&d#&d#&d#&d#&d#&d#&d#&d#r&rd#&d#&d#&d#&d#&d#&d#&d#&d#&d#&d#&d#&d#r&rd&d&d&d&d&d&d&d&d&d&d&d&d&d&d&d&d&d&d&d&d&d&d&d&d&dr&r&r&rd&d&d&d&d&d&d&d&d&d&d&d&dr&rd&d&d&d&d&d&d&d&d&d&d&d&dr&ro3d&d&d&d&d&d&d&d&d&d&d&d&d&d&d&d&d&d&d&d&d&d&d&d&d&dr&r&r&rd&d&d&d&d&d&d&d&d&d&d&d&dr&rd&d&d&d&d&d&d&d&d&d&d&d&dr&r
2: T120 @0 L240 $ f#&f#&f#&f#&f#&f#&f#&f#&f#&f#&f#&f#&f#&f#&f#&f#&f#&f#&f#&f#&f#&f#&f#&f#&f#&f#&f#&f#&f#&f#&f#&f#&f#&f#&f#&f#&f#&f#&f#&f#&f#&f#&f#&f#&f#&f#&f#&f#&f#&f#&f#&f#&f#&f#&f#&f#&f#&f#&f#&f#a&a&a&a&a&a&a&a&a&a&a&a&a&a&a&a&a&a&a&a&a&a&a&a&a&a&a&a&a&a&a&a&a&a&a&a&a&a&a&a&a&a&a&a&a&a&a&a&a&a&a&a&a&a&a&a&a&a&a&ao5d&d&d&d&d&d&d&d&d&d&d&d&d&d&d&d&d&d&d&d&d&d&d&d&d&d&d&d&d&d&d&d&d&d&d&d&d&d&d&d&d&d&d&d&d&d&d&d&d&d&d&d&d&d&d&d&d&d&d&do4a&a&a&a&a&a&a&a&a&a&a&a&a&a&a&a&a&a&a&a&a&a&a&a&a&a&a&a&a&af#&f#&f#&f#&f#&f#&f#&f#&f#&f#&f#&f#&f#&f#&f#&f#&f#&f#&f#&f#&f#&f#&f#&f#&f#&f#&f#&f#&f#&f#a&a&a&a&a&a&a&a&a&a&a&a&a&a&a&a&a&a&a&a&a&a&a&a&a&a&a&a&a&a&a&a&a&a&a&a&a&a&a&a&a&a&a&a&a&a&a&a&a&a&a&a&a&a&a&a&a&a&a&ag&g&g&g&g&g&g&g&g&g&g&g&g&g&g&g&g&g&g&g&g&g&g&g&g&g&g&g&g&gf#&f#&f#&f#&f#&f#&f#&f#&f#&f#&f#&f#&f#&f#&f#&f#&f#&f#&f#&f#&f#&f#&f#&f#&f#&f#&f#&f#&f#&f#e&e&e&e&e&e&e&e&e&e&e&e&e&e&e&e&e&e&e&e&e&e&e&e&e&e&e&e&e&e&e&e&e&e&e&e&e&e&e&e&e&e&e&e&e&e&e&e&e&e&e&e&e&e&e&e&e&e&e&ec#&c#&c#&c#&c#&c#&c#&c#&c#&c#&c#&c#&c#&c#&c#&c#&c#&c#&c#&c#&c#&c#&c#&c#&c#&c#&c#&c#&c#&c#o5c#&c#&c#&c#&c#&c#&c#&c#&c#&c#&c#&c#&c#&c#&c#&c#&c#&c#&c#&c#&c#&c#&c#&c#&c#&c#&c#&c#&c#&c#o4a#&a#&a#&a#&a#&a#&a#&a#&a#&a#&a#&a#&a#&a#&a#&a#&a#&a#&a#&a#&a#&a#&a#&a#&a#&a#&a#&a#&a#&a#&a#&a#&a#&a#&a#&a#&a#&a#&a#&a#&a#&a#&a#&a#&a#&a#&a#&a#&a#&a#&a#&a#&a#&a#&a#&a#&a#&a#&a#&a#a&a&a&a&a&a&a&a&a&a&a&a&a&a&a&a&a&a&a&a&a&a&a&a&a&a&a&a&a&a&a&a&a&a&a&a&a&a&ar&r&r&r&r&r&r&r&r&r&r&r&r&r&r&r&r&r&r&r&rf&f&f&f&f&f&f&f&f&f&f&f&f&f&f&f&f&f&f&f&f&f&f&f&f&f&f&f&f&f&f&f&f&f&f&f&f&f&f&f&f&f&f&f&f&f&f&f&f&f&f&f&f&f&f&f&f&f&f&fd&d&d&d&d&d&d&d&d&d&d&d&d&d&d&d&d&d&d&d&d&d&d&d&d&d&d&d&d&d&d&d&d&d&d&d&d&d&d&d&d&d&d&d&d&d&d&d&d&d&d&d&d&d&d&d&d&d&d&do5e&e&e&e&e&e&e&e&e&e&e&e&e&e&e&e&e&e&e&e&e&e&e&e&e&e&e&e&e&e&e&e&e&e&e&e&e&e&e&e&e&e&e&e&e&e&e&e&e&e&e&e&e&e&e&e&e&e&e&ed&d&d&d&d&d&d&d&d&d&d&d&d&d&d&d&d&d&d&d&d&d&d&d&d&d&d&d&d&dc&c&c&c&c&c&c&c&c&c&c&c&c&c&c&c&c&c&c&c&c&c&c&c&c&c&c&c&c&co4a#&a#&a#&a#&a#&a#&a#&a#&a#&a#&a#&a#&a#&a#&a#&a#&a#&a#&a#&a#&a#&a#&a#&a#&a#&a#&a#&a#&a#&a#a&a&a&a&a&a&a&a&a&a&a&a&a&a&a&a&a&a&a&a&a&a&a&a&a&a&a&a&a&ag&g&g&g&g&g&g&g&g&g&g&g&g&g&g&g&g&g&g&g&g&g&g&g&g&g&g&g&g&g&g&g&g&g&g&g&g&g&g&g&g&g&g&g&g&g&g&g&g&g&g&g&g&g&g&g&g&g&g&gf#&f#&f#&f#&f#&f#&f#&f#&f#&f#&f#&f#&f#&f#&f#&f#&f#&f#&f#&f#&f#&f#&f#&f#&f#&f#&f#&f#&f#&f#&f#&f#&f#&f#&f#&f#&f#&f#&f#&f#&f#&f#&f#&f#&f#&f#&f#&f#&f#&f#&f#&f#&f#&f#&f#&f#&f#&f#&f#&f#a&a&a&a&a&a&a&a&a&a&a&a&a&a&a&a&a&a&a&a&a&a&a&a&a&a&a&a&a&a&a&a&a&a&a&a&a&a&a&a&a&a&a&a&a&a&a&a&a&a&a&a&a&a&a&a&a&a&a&ao5d&d&d&d&d&d&d&d&d&d&d&d&d&d&d&d&d&d&d&d&d&d&d&d&d&d&d&d&d&d&d&d&d&d&d&d&d&d&d&d&d&d&d&d&d&d&d&d&d&d&d&d&d&d&d&d&d&d&d&d&d&d&d&d&d&d&d&d&d&d&d&d&d&d&d&d&d&d&d&d&d&d&d&d&d&d&d&d&d&do4f#&f#&f#&f#&f#&f#&f#&f#&f#&f#&f#&f#&f#&f#&f#&f#&f#&f#&f#&f#&f#&f#&f#&f#&f#&f#&f#&f#&f#&f#a&a&a&a&a&a&a&a&a&a&a&a&a&a&a&a&a&a&a&a&a&a&a&a&a&a&a&a&a&a&a&a&a&a&a&a&a&a&a&a&a&a&a&a&a&a&a&a&a&a&a&a&a&a&a&a&a&a&a&a&a&a&a&a&a&a&a&a&a&a&a&a&a&a&a&a&a&a&a&a&a&a&a&a&a&a&a&a&a&ae&e&e&e&e&e&e&e&e&e&e&e&e&e&e&e&e&e&e&e&e&e&e&e&e&e&e&e&e&eo5c#&c#&c#&c#&c#&c#&c#&c#&c#&c#&c#&c#&c#&c#&c#&c#&c#&c#&c#&c#&c#&c#&c#&c#&c#&c#&c#&c#&c#&c#&c#&c#&c#&c#&c#&c#&c#&c#&c#&c#&c#&c#&c#&c#&c#&c#&c#&c#&c#&c#&c#&c#&c#&c#&c#&c#&c#&c#&c#&c#&c#&c#&c#&c#&c#&c#&c#&c#&c#&c#&c#&c#&c#&c#&c#&c#&c#&c#&c#&c#&c#&c#&c#&c#&c#&c#&c#&c#&c#&c#&c#&c#&c#&c#&c#&c#&c#&c#&c#&c#&c#&c#&c#&c#&c#&c#&c#&c#&c#&c#&c#&c#&c#&c#&c#&c#&c#&c#&c#&c#o4a#&a#&a#&a#&a#&a#&a#&a#&a#&a#&a#&a#&a#&a#&a#&a#&a#&a#&a#&a#&a#&a#&a#&a#&a#&a#&a#&a#&a#&a#&a#&a#&a#&a#&a#&a#&a#&a#&a#&a#&a#&a#&a#&a#&a#&a#&a#&a#&a#&a#&a#&a#&a#&a#&a#&a#&a#&a#&a#&a#f&f&f&f&f&f&f&f&f&f&f&f&f&f&f&f&f&f&f&f&f&f&f&f&f&f&f&f&f&fo5d&d&d&d&d&d&d&d&d&d&d&d&d&d&d&d&d&d&d&d&d&d&d&d&d&d&d&d&d&de&e&e&e&e&e&e&e&e&e&e&e&e&e&e&e&e&e&e&e&e&e&e&e&e&e&e&e&e&ec&c&c&c&c&c&c&c&c&c&c&c&c&c&c&c&c&c&c&c&c&c&c&c&c&c&c&c&c&c&c&c&c&c&c&c&c&c&c&c&c&c&c&c&c&c&c&c&c&c&c&c&c&c&c&c&c&c&c&ce&e&e&e&e&e&e&e&e&e&e&e&e&e&e&e&e&e&e&e&e&e&e&e&e&e&e&e&e&ed&d&d&d&d&d&d&d&d&d&d&d&d&d&d&d&d&d&d&d&d&d&d&d&d&d&d&d&d&d&d&d&d&d&d&d&d&d&d&d&d&d&d&d&d&d&d&d&d&d&d&d&d&d&d&d&d&d&d&do4g&g&g&g&g&g&g&g&g&g&g&g&g&g&g&g&g&g&g&g&g&g&g&g&g&g&g&g&g&gf#&f#&f#&f#&f#&f#&f#&f#&f#&f#&f#&f#&f#&f#&f#&f#&f#&f#&f#&f#&f#&f#&f#&f#&f#&f#&f#&f#&f#&f#&f#&f#&f#&f#&f#&f#&f#&f#&f#&f#&f#&f#&f#&f#&f#&f#&f#&f#&f#&f#&f#&f#&f#&f#&f#&f#&f#&f#&f#&f#&f#&f#&f#&f#&f#&f#&f#&f#&f#r&r&r&r&r&r&r&r&r&r&r&r&r&r&r&r&r&r&r&r&ra&a&a&a&a&a&a&a&a&a&a&a&a&a&a&a&a&a&a&a&a&a&a&a&a&a&a&a&a&a&a&a&a&a&a&a&a&a&a&a&a&a&a&a&a&a&a&a&a&a&a&a&a&a&a&a&a&a&a&a
3: T120 @2 L240 $ r&r&r&r&r&r&r&r&r&r&r&r&r&r&r&r&r&r&r&r&r&r&r&r&r&r&r&r&r&r&r&r&r&r&r&r&r&r&r&r&r&r&r&r&r&r&r&r&r&r&r&r&r&r&r&r&r&r&r&r&r&r&r&r&r&r&r&r&r&r&r&r&r&r&r&r&r&r&r&r&r&r&r&r&r&r&r&r&r&r&r&r&r&r&r&r&r&r&r&r&r&r&r&r&r&r&r&r&r&r&r&r&r&r&r&r&r&r&r&r&r&r&r&r&r&r&r&r&r&r&r&r&r&r&r&r&r&r&r&r&r&r&r&r&r&r&r&r&r&r&r&r&r&r&r&r&r&r&r&r&r&r&r&r&r&r&r&r&r&r&r&r&r&r&r&r&r&r&r&r&r&r&r&r&r&r&r&r&r&r&r&r&r&r&r&r&r&r&r&r&r&r&r&r&r&r&r&r&r&r&r&r&r&r&r&r&r&r&r&r&r&r&r&r&r&r&r&r&r&r&r&r&r&r&r&r&r&r&r&r&r&r&r&r&r&r&r&r&r&r&r&r&r&r&r&r&r&r&r&r&r&r&r&r&r&r&r&r&r&r&r&r&r&r&r&r&r&r&r&r&r&r&r&r&r&r&r&r&r&r&r&r&r&r&r&r&r&r&r&r&r&r&r&r&r&r&r&r&r&r&r&r&r&r&r&r&r&r&r&r&r&r&r&r&r&r&r&r&r&r&r&r&r&r&r&r&r&r&r&r&r&r&r&r&r&r&r&r&r&r&r&r&r&r&r&r&r&r&r&r&r&r&r&r&r&r&r&r&r&r&r&r&r&r&r&r&r&r&r&r&r&r&r&r&r&r&r&r&r&r&r&r&r&r&r&r&r&r&r&r&r&r&r&r&r&r&r&r&r&r&r&r&r&r&r&r&r&r&r&r&r&r&r&r&r&r&r&r&r&r&r&r&r&r&r&r&r&r&r&r&r&r&r&r&r&r&r&r&r&r&r&r&r&r&r&r&r&r&r&r&r&r&r&r&r&r&r&r&r&r&r&r&r&r&r&r&r&r&r&r&r&r&r&r&r&r&r&r&r&r&r&r&r&r&r&r&r&r&r&r&r&r&r&r&r&r&r&r&r&r&r&r&r&r&r&r&r&r&r&r&r&r&r&r&r&r&r&r&r&r&r&r&r&r&r&r&r&r&r&r&r&r&r&r&r&r&r&r&r&r&r&r&r&r&r&r&r&r&r&r&r&r&r&r&r&r&r&r&r&r&r&r&r&r&r&r&r&r&r&r&r&r&r&r&r&r&r&r&r&r&r&r&r&r&r&r&r&r&r&r&r&r&r&r&r&r&r&r&r&r&r&r&r&r&r&r&r&r&r&r&r&r&r&r&r&r&r&r&r&r&r&r&r&r&r&r&r&r&r&r&r&r&r&r&r&r&r&r&r&r&r&r&r&r&r&r&r&r&r&r&r&r&r&r&r&r&r&r&r&r&r&r&r&r&r&r&r&r&r&r&r&r&r&r&r&r&r&r&r&r&r&r&r&r&r&r&r&r&r&r&r&r&r&r&r&r&r&r&r&r&r&r&r&r&r&r&r&r&r&r&r&r&r&r&r&r&r&r&r&r&r&r&r&r&r&r&r&r&r&r&r&r&r&r&r&r&r&r&r&r&r&r&r&r&r&r&r&r&r&r&r&r&r&r&r&r&r&r&r&r&r&r&r&r&r&r&r&r&r&r&r&r&r&r&r&r&r&r&r&r&r&r&r&r&r&r&r&r&r&r&r&r&r&r&r&r&r&r&r&r&r&r&r&r&r&r&r&r&r&r&r&r&r&r&r&r&r&r&r&r&r&r&r&r&r&r&r&r&r&r&r&r&r&r&r&r&r&r&r&r&r&r&r&r&r&r&r&r&r&r&r&r&r&r&r&r&r&r&r&r&r&r&r&r&r&r&r&r&r&r&r&r&r&r&r&r&r&r&r&r&r&r&r&r&r&r&r&r&r&r&r&r&r&r&r&r&r&r&r&r&r&r&r&r&r&r&r&r&r&r&r&r&r&r&r&r&r&r&r&r&r&r&r&r&r&r&r&r&r&r&r&r&r&r&r&r&r&r&r&r&r&r&r&r&r&r&r&r&r&r&r&r&r&r&r&r&r&r&r&r&r&r&r&r&r&r&r&r&r&r&r&r&r&r&r&r&r&r&r&r&r&r&r&r&r&r&r&r&r&r&r&r&r&r&r&r&r&r&r&r&r&r&r&r&r&r&r&r&r&r&r&r&r&r&r&r&r&r&r&r&r&r&r&r&r&r&r&r&r&r&r&r&r&r&r&r&r&r&r&r&r&r&r&r&r&r&r&r&r&r&r&r&r&r&r&r&r&r&r&r&r&r&r&r&r&r&r&r&r&r&r&r&r&r&r&r&r&r&r&r&r&r&r&r&r&r&r&r&r&r&r&r&r&r&r&r&r&r&r&r&r&r&r&r&r&r&r&r&r&r&r&r&r&r&r&r&r&r&r&r&r&r&r&r&r&r&r&r&r&r&r&r&r&r&r&r&r&r&r&r&r&r&r&r&r&r&r&r&r&r&r&r&r&r&r&r&r&r&r&r&r&r&r&r&r&r&r&r&r&r&r&r&r&r&r&r&r&r&r&r&r&r&r&r&r&r&r&r&r&r&r&r&r&r&r&r&r&r&r&r&r&r&r&r&r&r&r&r&r&r&r&r&r&r&r&r&r&r&r&r&r&r&r&r&r&r&r&r&r&r&r&r&r&r&r&r&r&r&r&r&r&r&r&r&r&r&r&r&r&r&r&r&r&r&r&r&r&r&r&r&r&r&r&r&r&r&r&r&r&r&r&r&r&r&r&r&r&r&r&r&r&r&r&r&r&r&r&r&r&r&r&r&r&r&r&r&r&r&r&r&r&r&r&r&r&r&r&r&r&r&r&r&r&r&r&r&r&r&r&r&r&r&r&r&r&r&r&r&r&r&r&r&r&r&r&r&r&r&r&r&r&r&r&r&r&r&r&r&r&r&r&r&r&r&r&r&r&r&r&r&r&r&r&r&r&r&r&r&r&r&r&r&r&r&r&r&r&r&r&r&r&r&r&r&r&r&r&r&r&r&r&r&r&r&r&r&r&r&r&r&r&r&r&r&r&r&r&r&r&r&r&r&r&r&r&r&r&r&r&r&r&r&r&r&r&r&r&r&r&r&r&r&r&r&r&r&r&r&r&r&r&r&r&r&r&r&r&r&r&r&r&r&r&r&r&r&r&r&r&r&r&r&r&r&r&r&r&r&r&r&r&r&r&r&r&r&r&r&r&r&r&r&r&r&r&r&r&r&r&r&r&r&r&r&r&r&r&r&r&r&r&r&r&r&r&r&r&r&r&r&r&r&r&r&r&r&r&r&r&r&r&r&r&r&r&r&r&r&r&r&r&r&r&r&r&r&r&r&r&r&r&r&r&r&r&r&r&r&r&r&r&r&r&r&r&r&r&r&r&r&r&r&r&r&r&r&r&r&r&r&r&r&r&r&r&r&r&r&r&r&r&r&r&r&r&r&r&r&r&r&r&r&r&r&r&r&r&r&r&r&r&r&r&r&r&r&r&r&r&r&r&r&r&r&r&r&r&r&r&r&r&r&r&r&r&r&r&r&r&r&r&r&r&r&r&r&r&r&r&r&r&r&r&r&r&r&r&r&r&r&r&r&r&r&r&r&r&r&r&r&r&r&r&r&r&r&r&r&r&r&r&r&r&r&r&r&r&r&r&r&r&r&r&r&r&r&r&r&r&r&r&r&r&r&r&r&r&r&r&r&r&r&r&r&r&r&r&r&r&r&r&r&r&r&r&r&r&r&r&r&r&r&r&r&r&r&r&r&r&r&r&r&r&r&r&r&r&r&r&r&r&r&r&r&r&r&r&r&r&r&r&r&r&r&r&r&r&r&r&r&r&r&r&r&r&r&r&r&r&r&r&r&r&r&r&r&r&r&r&r&r&r&r&r&r&r&r&r&r&r&r&r&r&r&r&r&r&r&r&r&r&r&r&r&r&r&r&r&r&r&r&r&r&r&r&r&r&r&r&r&r&r&r&r&r&r&r&r&r&r&r&r&r&r&r&r&r&r&r&r&r&r&r&r&r&r&r&r&r&r&r&r&r&r&r&r&r&r&r&r&r&r&r&r&r&r&r&r&r&r&r&r&r&r&r&r&r&r&r&r&r&r&r&r&r&r&r&r&r&r&r&r&r&r&r&r&r&r&r&r&r&r&r&r&r&r&r&r&r&r
